%
(1001)
(0)
(Mquina)
(  proveedor Tormach)
(  model PCNC440)
(  description Tormach PCNC440)
(T1 D=12.7 CR=0. - ZMIN=-2. - fresa con punta plana)
G90 G54 G64 G50 G17 G40 G80 G94 G91.1 G49
G21 (Mtrico)
G30

N10 (Cara1)
T1 G43 H1 M6
S300 M3 M8
G17 G90 G94
G54
G0 X35.494 Y-27.266
G0 Z15.
G0 Z5.
G1 Z0.8 F333.33
G1 X35.487 Z0.634 F1000.
G1 X35.464 Z0.469
G1 X35.426 Z0.307
G1 X35.373 Z0.15
G1 X35.306 Z-0.002
G1 X35.225 Z-0.148
G1 X35.131 Z-0.285
G1 X35.024 Z-0.413
G1 X34.907 Z-0.53
G1 X34.779 Z-0.636
G1 X34.642 Z-0.73
G1 X34.497 Z-0.811
G1 X34.344 Z-0.878
G1 X34.187 Z-0.931
G1 X34.025 Z-0.969
G1 X33.86 Z-0.992
G1 X33.694 Z-1.
G1 X29.
G1 X-29.
G2 Y-21.245 I0. J3.011
G1 X29.
G3 Y-15.223 I0. J3.011
G1 X-29.
G2 Y-9.202 I0. J3.011
G1 X29.
G3 Y-3.181 I0. J3.011
G1 X-29.
G2 Y2.841 I0. J3.011
G1 X29.
G3 Y8.862 I0. J3.011
G1 X-29.
G2 Y14.884 I0. J3.011
G1 X29.
G3 Y20.905 I0. J3.011
G1 X-29.
G1 X-29.166 Z-0.992
G1 X-29.331 Z-0.969
G1 X-29.493 Z-0.931
G1 X-29.65 Z-0.878
G1 X-29.802 Z-0.811
G1 X-29.948 Z-0.73
G1 X-30.085 Z-0.636
G1 X-30.213 Z-0.53
G1 X-30.33 Z-0.413
G1 X-30.436 Z-0.285
G1 X-30.53 Z-0.148
G1 X-30.611 Z-0.002
G1 X-30.678 Z0.15
G1 X-30.731 Z0.307
G1 X-30.769 Z0.469
G1 X-30.792 Z0.634
G1 X-30.8 Z0.8
G0 Z5.
G0 X-35.494 Y-27.266
G1 Z-0.2 F333.33
G1 X-35.487 Z-0.366 F1000.
G1 X-35.464 Z-0.531
G1 X-35.426 Z-0.693
G1 X-35.373 Z-0.85
G1 X-35.306 Z-1.002
G1 X-35.225 Z-1.148
G1 X-35.131 Z-1.285
G1 X-35.024 Z-1.413
G1 X-34.907 Z-1.53
G1 X-34.779 Z-1.636
G1 X-34.642 Z-1.73
G1 X-34.497 Z-1.811
G1 X-34.344 Z-1.878
G1 X-34.187 Z-1.931
G1 X-34.025 Z-1.969
G1 X-33.86 Z-1.992
G1 X-33.694 Z-2.
G1 X-29.
G1 X29.
G3 Y-21.245 I0. J3.011
G1 X-29.
G2 Y-15.223 I0. J3.011
G1 X29.
G3 Y-9.202 I0. J3.011
G1 X-29.
G2 Y-3.181 I0. J3.011
G1 X29.
G3 Y2.841 I0. J3.011
G1 X-29.
G2 Y8.862 I0. J3.011
G1 X29.
G3 Y14.884 I0. J3.011
G1 X-29.
G2 Y20.905 I0. J3.011
G1 X29.
G1 X29.166 Z-1.992
G1 X29.331 Z-1.969
G1 X29.493 Z-1.931
G1 X29.65 Z-1.878
G1 X29.802 Z-1.811
G1 X29.948 Z-1.73
G1 X30.085 Z-1.636
G1 X30.213 Z-1.53
G1 X30.33 Z-1.413
G1 X30.436 Z-1.285
G1 X30.53 Z-1.148
G1 X30.611 Z-1.002
G1 X30.678 Z-0.85
G1 X30.731 Z-0.693
G1 X30.769 Z-0.531
G1 X30.792 Z-0.366
G1 X30.8 Z-0.2
G0 Z15.
M5 M9

G30
M30
%
