%
(1002)
(30)
(Mquina)
(  proveedor Tormach)
(  model PCNC440)
(  description Tormach PCNC440)
(T1 D=12.7 CR=0. - ZMIN=-2. - fresa con punta plana)
G90 G54 G64 G50 G17 G40 G80 G94 G91.1 G49
G21 (Mtrico)
G30

N10 (Cara1)
T1 G43 H1 M6
S300 M3 M8
G17 G90 G94
G54
G0 X35.544 Y-21.506
G0 Z15.
G0 Z5.
G1 Z0.8 F333.33
G1 X35.537 Y-21.51 Z0.634 F1000.
G1 X35.517 Y-21.522 Z0.469
G1 X35.484 Y-21.541 Z0.307
G1 X35.439 Y-21.567 Z0.15
G1 X35.38 Y-21.601 Z-0.002
G1 X35.31 Y-21.641 Z-0.148
G1 X35.229 Y-21.688 Z-0.285
G1 X35.137 Y-21.741 Z-0.413
G1 X35.035 Y-21.8 Z-0.53
G1 X34.924 Y-21.864 Z-0.636
G1 X34.806 Y-21.933 Z-0.73
G1 X34.68 Y-22.005 Z-0.811
G1 X34.548 Y-22.081 Z-0.878
G1 X34.412 Y-22.16 Z-0.931
G1 X34.271 Y-22.241 Z-0.969
G1 X34.129 Y-22.323 Z-0.992
G1 X33.985 Y-22.406 Z-1.
G1 X31.907 Y-23.606
G1 X14.772 Y-33.499
G1 X5.71 Y-38.731
G2 X2.689 Y-33.499 I-1.51 J2.616
G1 X31.907 Y-16.63
G1 X34.928 Y-14.886
G3 X36.033 Y-10.76 I-1.51 J2.616
G3 X31.907 Y-9.655 I-2.616 J-1.51
G1 X-9.393 Y-33.499
G1 X-18.455 Y-38.731
G2 X-22.581 Y-37.625 I-1.51 J2.616
G2 X-21.475 Y-33.499 I2.616 J1.51
G1 X31.907 Y-2.679
G1 X34.928 Y-0.935
G3 X36.033 Y3.191 I-1.51 J2.616
G3 X31.907 Y4.297 I-2.616 J-1.51
G1 X-26.923 Y-29.669
G2 X-29.944 Y-24.437 I-1.51 J2.616
G1 X31.907 Y11.273
G1 X34.928 Y13.016
G3 X36.033 Y17.143 I-1.51 J2.616
G3 X31.907 Y18.248 I-2.616 J-1.51
G1 X-31.907 Y-18.595
G2 X-34.928 Y-13.363 I-1.51 J2.616
G1 X-31.907 Y-11.619
G1 X30.094 Y24.177
G3 X31.2 Y28.303 I-1.51 J2.616
G3 X27.073 Y29.409 I-2.616 J-1.51
G1 X-31.907 Y-4.643
G2 X-36.033 Y-3.538 I-1.51 J2.616
G2 X-34.928 Y0.588 I2.616 J1.51
G1 X-31.907 Y2.332
G1 X22.076 Y33.499
G3 X23.181 Y37.625 I-1.51 J2.616
G3 X19.055 Y38.731 I-2.616 J-1.51
G1 X9.993 Y33.499
G1 X-31.907 Y9.308
G2 X-36.033 Y10.414 I-1.51 J2.616
G2 X-34.928 Y14.54 I2.616 J1.51
G1 X-31.907 Y16.284
G1 X-2.089 Y33.499
G1 X-1.945 Y33.582 Z-0.992
G1 X-1.802 Y33.665 Z-0.969
G1 X-1.662 Y33.746 Z-0.931
G1 X-1.526 Y33.824 Z-0.878
G1 X-1.394 Y33.9 Z-0.811
G1 X-1.268 Y33.973 Z-0.73
G1 X-1.149 Y34.042 Z-0.636
G1 X-1.039 Y34.106 Z-0.53
G1 X-0.937 Y34.164 Z-0.413
G1 X-0.845 Y34.217 Z-0.285
G1 X-0.763 Y34.264 Z-0.148
G1 X-0.693 Y34.305 Z-0.002
G1 X-0.635 Y34.338 Z0.15
G1 X-0.59 Y34.365 Z0.307
G1 X-0.557 Y34.384 Z0.469
G1 X-0.537 Y34.395 Z0.634
G1 X-0.53 Y34.399 Z0.8
G0 Z5.
G0 X35.544 Y-21.506
G1 Z-0.2 F333.33
G1 X35.537 Y-21.51 Z-0.366 F1000.
G1 X35.517 Y-21.522 Z-0.531
G1 X35.484 Y-21.541 Z-0.693
G1 X35.439 Y-21.567 Z-0.85
G1 X35.38 Y-21.601 Z-1.002
G1 X35.31 Y-21.641 Z-1.148
G1 X35.229 Y-21.688 Z-1.285
G1 X35.137 Y-21.741 Z-1.413
G1 X35.035 Y-21.8 Z-1.53
G1 X34.924 Y-21.864 Z-1.636
G1 X34.806 Y-21.933 Z-1.73
G1 X34.68 Y-22.005 Z-1.811
G1 X34.548 Y-22.081 Z-1.878
G1 X34.412 Y-22.16 Z-1.931
G1 X34.271 Y-22.241 Z-1.969
G1 X34.129 Y-22.323 Z-1.992
G1 X33.985 Y-22.406 Z-2.
G1 X31.907 Y-23.606
G1 X14.772 Y-33.499
G1 X5.71 Y-38.731
G2 X2.689 Y-33.499 I-1.51 J2.616
G1 X31.907 Y-16.63
G1 X34.928 Y-14.886
G3 X36.033 Y-10.76 I-1.51 J2.616
G3 X31.907 Y-9.655 I-2.616 J-1.51
G1 X-9.393 Y-33.499
G1 X-18.455 Y-38.731
G2 X-22.581 Y-37.625 I-1.51 J2.616
G2 X-21.475 Y-33.499 I2.616 J1.51
G1 X31.907 Y-2.679
G1 X34.928 Y-0.935
G3 X36.033 Y3.191 I-1.51 J2.616
G3 X31.907 Y4.297 I-2.616 J-1.51
G1 X-26.923 Y-29.669
G2 X-29.944 Y-24.437 I-1.51 J2.616
G1 X31.907 Y11.273
G1 X34.928 Y13.016
G3 X36.033 Y17.143 I-1.51 J2.616
G3 X31.907 Y18.248 I-2.616 J-1.51
G1 X-31.907 Y-18.595
G2 X-34.928 Y-13.363 I-1.51 J2.616
G1 X-31.907 Y-11.619
G1 X30.094 Y24.177
G3 X31.2 Y28.303 I-1.51 J2.616
G3 X27.073 Y29.409 I-2.616 J-1.51
G1 X-31.907 Y-4.643
G2 X-36.033 Y-3.538 I-1.51 J2.616
G2 X-34.928 Y0.588 I2.616 J1.51
G1 X-31.907 Y2.332
G1 X22.076 Y33.499
G3 X23.181 Y37.625 I-1.51 J2.616
G3 X19.055 Y38.731 I-2.616 J-1.51
G1 X9.993 Y33.499
G1 X-31.907 Y9.308
G2 X-36.033 Y10.414 I-1.51 J2.616
G2 X-34.928 Y14.54 I2.616 J1.51
G1 X-31.907 Y16.284
G1 X-2.089 Y33.499
G1 X-1.945 Y33.582 Z-1.992
G1 X-1.802 Y33.665 Z-1.969
G1 X-1.662 Y33.746 Z-1.931
G1 X-1.526 Y33.824 Z-1.878
G1 X-1.394 Y33.9 Z-1.811
G1 X-1.268 Y33.973 Z-1.73
G1 X-1.149 Y34.042 Z-1.636
G1 X-1.039 Y34.106 Z-1.53
G1 X-0.937 Y34.164 Z-1.413
G1 X-0.845 Y34.217 Z-1.285
G1 X-0.763 Y34.264 Z-1.148
G1 X-0.693 Y34.305 Z-1.002
G1 X-0.635 Y34.338 Z-0.85
G1 X-0.59 Y34.365 Z-0.693
G1 X-0.557 Y34.384 Z-0.531
G1 X-0.537 Y34.395 Z-0.366
G1 X-0.53 Y34.399 Z-0.2
G0 Z15.
M5 M9

G30
M30
%
