%
(1003)
(45)
(Mquina)
(  proveedor Tormach)
(  model PCNC440)
(  description Tormach PCNC440)
(T1 D=12.7 CR=0. - ZMIN=-2. - fresa con punta plana)
G90 G54 G64 G50 G17 G40 G80 G94 G91.1 G49
G21 (Mtrico)
G30

N10 (Cara1)
T1 G43 H1 M6
S300 M3 M8
G17 G90 G94
G54
G0 X35.258 Y-17.635
G0 Z15.
G0 Z5.
G1 Z0.8 F333.33
G1 X35.252 Y-17.641 Z0.634 F1000.
G1 X35.236 Y-17.657 Z0.469
G1 X35.209 Y-17.684 Z0.307
G1 X35.172 Y-17.721 Z0.15
G1 X35.124 Y-17.769 Z-0.002
G1 X35.067 Y-17.826 Z-0.148
G1 X35.001 Y-17.892 Z-0.285
G1 X34.926 Y-17.967 Z-0.413
G1 X34.842 Y-18.05 Z-0.53
G1 X34.752 Y-18.141 Z-0.636
G1 X34.655 Y-18.238 Z-0.73
G1 X34.552 Y-18.341 Z-0.811
G1 X34.445 Y-18.448 Z-0.878
G1 X34.333 Y-18.56 Z-0.931
G1 X34.219 Y-18.674 Z-0.969
G1 X34.102 Y-18.79 Z-0.992
G1 X33.985 Y-18.908 Z-1.
G1 X32.904 Y-19.989
G1 X19.989 Y-32.904
G1 X15.575 Y-37.318
G2 X11.161 Y-32.904 I-2.207 J2.207
G1 X32.904 Y-11.161
G1 X37.318 Y-6.747
G3 X32.904 Y-2.334 I-2.207 J2.207
G1 X2.334 Y-32.904
G1 X-2.08 Y-37.318
G2 X-6.494 Y-32.904 I-2.207 J2.207
G1 X32.904 Y6.494
G1 X37.318 Y10.907
G3 X32.904 Y15.321 I-2.207 J2.207
G1 X-15.321 Y-32.904
G1 X-19.037 Y-36.62
G2 X-23.451 I-2.207 J2.207
G2 Y-32.206 I2.207 J2.207
G1 X32.206 Y23.451
G3 X27.793 Y27.864 I-2.207 J2.207
G1 X-27.864 Y-27.793
G2 X-32.278 Y-23.379 I-2.207 J2.207
G1 X23.379 Y32.278
G3 X18.965 Y36.692 I-2.207 J2.207
G1 X15.178 Y32.904
G1 X-32.904 Y-15.178
G2 X-37.318 Y-10.764 I-2.207 J2.207
G1 X-32.904 Y-6.35
G1 X6.35 Y32.904
G3 Y37.318 I-2.207 J2.207
G3 X1.937 I-2.207 J-2.207
G1 X-2.477 Y32.904
G1 X-32.904 Y2.477
G2 X-37.318 Y6.891 I-2.207 J2.207
G1 X-32.904 Y11.304
G1 X-11.304 Y32.904
G1 X-11.187 Y33.022 Z-0.992
G1 X-11.071 Y33.138 Z-0.969
G1 X-10.956 Y33.253 Z-0.931
G1 X-10.845 Y33.364 Z-0.878
G1 X-10.737 Y33.472 Z-0.811
G1 X-10.634 Y33.574 Z-0.73
G1 X-10.537 Y33.671 Z-0.636
G1 X-10.447 Y33.762 Z-0.53
G1 X-10.364 Y33.845 Z-0.413
G1 X-10.289 Y33.92 Z-0.285
G1 X-10.222 Y33.986 Z-0.148
G1 X-10.165 Y34.044 Z-0.002
G1 X-10.118 Y34.091 Z0.15
G1 X-10.08 Y34.129 Z0.307
G1 X-10.053 Y34.155 Z0.469
G1 X-10.037 Y34.172 Z0.634
G1 X-10.032 Y34.177 Z0.8
G0 Z5.
G0 X35.258 Y-17.635
G1 Z-0.2 F333.33
G1 X35.252 Y-17.641 Z-0.366 F1000.
G1 X35.236 Y-17.657 Z-0.531
G1 X35.209 Y-17.684 Z-0.693
G1 X35.172 Y-17.721 Z-0.85
G1 X35.124 Y-17.769 Z-1.002
G1 X35.067 Y-17.826 Z-1.148
G1 X35.001 Y-17.892 Z-1.285
G1 X34.926 Y-17.967 Z-1.413
G1 X34.842 Y-18.05 Z-1.53
G1 X34.752 Y-18.141 Z-1.636
G1 X34.655 Y-18.238 Z-1.73
G1 X34.552 Y-18.341 Z-1.811
G1 X34.445 Y-18.448 Z-1.878
G1 X34.333 Y-18.56 Z-1.931
G1 X34.219 Y-18.674 Z-1.969
G1 X34.102 Y-18.79 Z-1.992
G1 X33.985 Y-18.908 Z-2.
G1 X32.904 Y-19.989
G1 X19.989 Y-32.904
G1 X15.575 Y-37.318
G2 X11.161 Y-32.904 I-2.207 J2.207
G1 X32.904 Y-11.161
G1 X37.318 Y-6.747
G3 X32.904 Y-2.334 I-2.207 J2.207
G1 X2.334 Y-32.904
G1 X-2.08 Y-37.318
G2 X-6.494 Y-32.904 I-2.207 J2.207
G1 X32.904 Y6.494
G1 X37.318 Y10.907
G3 X32.904 Y15.321 I-2.207 J2.207
G1 X-15.321 Y-32.904
G1 X-19.037 Y-36.62
G2 X-23.451 I-2.207 J2.207
G2 Y-32.206 I2.207 J2.207
G1 X32.206 Y23.451
G3 X27.793 Y27.864 I-2.207 J2.207
G1 X-27.864 Y-27.793
G2 X-32.278 Y-23.379 I-2.207 J2.207
G1 X23.379 Y32.278
G3 X18.965 Y36.692 I-2.207 J2.207
G1 X15.178 Y32.904
G1 X-32.904 Y-15.178
G2 X-37.318 Y-10.764 I-2.207 J2.207
G1 X-32.904 Y-6.35
G1 X6.35 Y32.904
G3 Y37.318 I-2.207 J2.207
G3 X1.937 I-2.207 J-2.207
G1 X-2.477 Y32.904
G1 X-32.904 Y2.477
G2 X-37.318 Y6.891 I-2.207 J2.207
G1 X-32.904 Y11.304
G1 X-11.304 Y32.904
G1 X-11.187 Y33.022 Z-1.992
G1 X-11.071 Y33.138 Z-1.969
G1 X-10.956 Y33.253 Z-1.931
G1 X-10.845 Y33.364 Z-1.878
G1 X-10.737 Y33.472 Z-1.811
G1 X-10.634 Y33.574 Z-1.73
G1 X-10.537 Y33.671 Z-1.636
G1 X-10.447 Y33.762 Z-1.53
G1 X-10.364 Y33.845 Z-1.413
G1 X-10.289 Y33.92 Z-1.285
G1 X-10.222 Y33.986 Z-1.148
G1 X-10.165 Y34.044 Z-1.002
G1 X-10.118 Y34.091 Z-0.85
G1 X-10.08 Y34.129 Z-0.693
G1 X-10.053 Y34.155 Z-0.531
G1 X-10.037 Y34.172 Z-0.366
G1 X-10.032 Y34.177 Z-0.2
G0 Z15.
M5 M9

G30
M30
%
