%
(1002)
(Titan 1M B side)
(Machine)
(  vendor Tormach)
(  model PCNC440)
(  description Tormach PCNC440)
(T1 D=0.5 CR=0. - ZMIN=0. - flat end mill)
(T15 D=0.25 CR=0. TAPER=90deg - ZMIN=-0.04 - spot drill)
G90 G54 G64 G50 G17 G40 G80 G94 G91.1 G49
G20 (Inch)
G30

N10 (Face3)
T1 G43 H1 M6
S1910 M3 M8
G17 G90 G94
G54
G0 X-0.79 Y0.1882
G0 Z1.
G0 Z0.5
G1 Z0.16 F2.292
G1 X4.79 F9.549
G2 Y-0.259 I0. J-0.2236
G1 X-0.79
G3 Y-0.7062 I0. J-0.2236
G1 X4.79
G2 Y-1.1535 I0. J-0.2236
G1 X-0.79
G3 Y-1.6007 I0. J-0.2236
G1 X4.79
G2 Y-2.048 I0. J-0.2236
G1 X-0.79
G0 Z1.
G0 Y0.1882
G0 Z0.5
G1 Z0.08 F2.292
G1 X4.79 F9.549
G2 Y-0.259 I0. J-0.2236
G1 X-0.79
G3 Y-0.7062 I0. J-0.2236
G1 X4.79
G2 Y-1.1535 I0. J-0.2236
G1 X-0.79
G3 Y-1.6007 I0. J-0.2236
G1 X4.79
G2 Y-2.048 I0. J-0.2236
G1 X-0.79
G0 Z1.
G0 Y0.1882
G0 Z0.5
G1 Z0. F2.292
G1 X4.79 F9.549
G2 Y-0.259 I0. J-0.2236
G1 X-0.79
G3 Y-0.7062 I0. J-0.2236
G1 X4.79
G2 Y-1.1535 I0. J-0.2236
G1 X-0.79
G3 Y-1.6007 I0. J-0.2236
G1 X4.79
G2 Y-2.048 I0. J-0.2236
G1 X-0.79
G0 Z1.
M5 M9
G30

N20 (2D Chamfer3)
M1
T15 G43 H15 M6
S428 M3 M8
G17 G90 G94
G0 X4.043 Y-1.987
G0 Z0.4
G0 Z0.1
G1 Z0.08 F3.056
G1 Z-0.04
G1 G41.2 X4.0607 Y-1.9693 D15 F6.112
G3 X3.99 Y-1.94 I-0.0707 J-0.0707
G1 X0.01
G2 X-0.04 Y-1.89 I0. J0.05
G1 Y-0.01
G2 X0.01 Y0.04 I0.05 J0.
G1 X3.99
G2 X4.04 Y-0.01 I0. J-0.05
G1 Y-1.89
G2 X3.99 Y-1.94 I-0.05 J0.
G3 X3.9193 Y-1.9693 I0. J-0.1
G1 G40 X3.937 Y-1.987
G0 Z0.4
M5 M9

G30
M30
%
