%
(1001)
(Titan-1M)
(Machine)
(  vendor Tormach)
(  model PCNC440)
(  description Tormach PCNC440)
(T1 D=0.5 CR=0. - ZMIN=0. - flat end mill)
(T4 D=0.375 CR=0. - ZMIN=-0.76 - flat end mill)
(T8 D=0.25 CR=0. - ZMIN=-0.105 - flat end mill)
(T13 D=0.5 CR=0. TAPER=90deg - ZMIN=-0.06 - spot drill)
(T15 D=0.25 CR=0. TAPER=90deg - ZMIN=-0.58 - spot drill)
G90 G54 G64 G50 G17 G40 G80 G94 G91.1 G49
G20 (Inch)
G30

N10 (Face1)
T1 G43 H1 M6
S410 M3 M8
G17 G90 G94
G54
G0 X4.6 Y-1.8623
G0 Z0.4
G0 Z0.1
G1 Z0.05 F2.292
G1 X4.5997 Z0.0444 F9.549
G1 X4.5987 Z0.0389
G1 X4.5972 Z0.0335
G1 X4.595 Z0.0283
G1 X4.5923 Z0.0234
G1 X4.5891 Z0.0188
G1 X4.5854 Z0.0146
G1 X4.5812 Z0.0109
G1 X4.5766 Z0.0077
G1 X4.5717 Z0.005
G1 X4.5665 Z0.0028
G1 X4.5611 Z0.0013
G1 X4.5556 Z0.0003
G1 X4.55 Z0.
G1 X-0.55
G2 Y-1.528 I0. J0.1671
G1 X4.55
G3 Y-1.1938 I0. J0.1671
G1 X-0.55
G2 Y-0.8595 I0. J0.1671
G1 X4.55
G3 Y-0.5252 I0. J0.1671
G1 X-0.55
G2 Y-0.191 I0. J0.1671
G1 X4.55
G1 X4.5556 Z0.0003
G1 X4.5611 Z0.0013
G1 X4.5665 Z0.0028
G1 X4.5717 Z0.005
G1 X4.5766 Z0.0077
G1 X4.5812 Z0.0109
G1 X4.5854 Z0.0146
G1 X4.5891 Z0.0188
G1 X4.5923 Z0.0234
G1 X4.595 Z0.0283
G1 X4.5972 Z0.0335
G1 X4.5987 Z0.0389
G1 X4.5997 Z0.0444
G1 X4.6 Z0.05
G0 Z0.4
M5 M9
G30

N20 (Adaptive1)
M1
T4 G43 H4 M6
S400 M3 M8
G17 G90 G94
G0 X-0.1157 Y-2.4901
G0 Z0.4
G0 Z0.2
G0 Z-0.46
G1 Z-0.61 F38.197
G1 X-0.1156 Y-2.4898 Z-0.6194
G1 X-0.1154 Y-2.4889 Z-0.6288
G1 X-0.115 Y-2.4875 Z-0.6381
G1 X-0.1145 Y-2.4855 Z-0.6473
G1 X-0.1139 Y-2.483 Z-0.6564
G1 X-0.1131 Y-2.4799 Z-0.6652
G1 X-0.1122 Y-2.4762 Z-0.6739
G1 X-0.1111 Y-2.4721 Z-0.6823
G1 X-0.1099 Y-2.4674 Z-0.6904
G1 X-0.1086 Y-2.4623 Z-0.6982
G1 X-0.1072 Y-2.4567 Z-0.7056
G1 X-0.1056 Y-2.4507 Z-0.7127
G1 X-0.104 Y-2.4442 Z-0.7193
G1 X-0.1022 Y-2.4374 Z-0.7256
G1 X-0.1004 Y-2.4302 Z-0.7314
G1 X-0.0984 Y-2.4226 Z-0.7366
G1 X-0.0964 Y-2.4148 Z-0.7414
G1 X-0.0943 Y-2.4066 Z-0.7457
G1 X-0.0922 Y-2.3982 Z-0.7495
G1 X-0.09 Y-2.3897 Z-0.7527
G1 X-0.0877 Y-2.3809 Z-0.7553
G1 X-0.0855 Y-2.372 Z-0.7573
G1 X-0.0831 Y-2.363 Z-0.7588
G1 X-0.0808 Y-2.3539 Z-0.7597
G1 X-0.0785 Y-2.3448 Z-0.76
G3 X-0.0491 Y-2.1406 I-0.9274 J0.2376
G1 Y-2.1355
G1 X-0.0652 Y-2.105
G1 X-0.0731 Y-2.0921
G1 X-0.0828 Y-2.0804
G1 X-0.0939 Y-2.0701
G1 X-0.1064 Y-2.0614
G1 X-0.1214 Y-2.0493
G1 X-0.1364 Y-2.0366
G1 X-0.1514 Y-2.019
G1 X-0.1612 Y-2.0067
G1 X-0.17 Y-1.9917
G1 X-0.1781 Y-1.9767
G1 X-0.1842 Y-1.9617
G1 X-0.1889 Y-1.9467
G1 X-0.1927 Y-1.9317
G1 X-0.1951 Y-1.9167
G1 X-0.1969 Y-1.9017
G1 X-0.1973 Y-1.8867
G1 X-0.1975 Y-1.8718
G1 Y-1.8118
G1 Y-0.0432
G1 Y-0.0282
G1 X-0.1973 Y-0.0133
G1 X-0.1969 Y0.0017
G1 X-0.1951 Y0.0167
G1 X-0.1927 Y0.0317
G1 X-0.1889 Y0.0467
G1 X-0.1842 Y0.0617
G1 X-0.1781 Y0.0767
G1 X-0.17 Y0.0917
G1 X-0.1612 Y0.1067
G1 X-0.1514 Y0.119
G1 X-0.1363 Y0.1366
G1 X-0.1214 Y0.1493
G1 X-0.1064 Y0.1614
G1 X-0.0978 Y0.1666
G1 X-0.0914 Y0.1702
G1 X-0.0764 Y0.1783
G1 X-0.0614 Y0.184
G1 X-0.0464 Y0.1892
G1 X-0.0314 Y0.1927
G1 X-0.0164 Y0.1952
G1 X-0.0015 Y0.1968
G1 X0.0135 Y0.1974
G1 X0.0435 Y0.1975
G1 X3.9565
G1 X3.9865 Y0.1974
G1 X4.0015 Y0.1968
G1 X4.0164 Y0.1952
G1 X4.0314 Y0.1927
G1 X4.0464 Y0.1892
G1 X4.0614 Y0.184
G1 X4.0764 Y0.1783
G1 X4.0914 Y0.1702
G1 X4.0978 Y0.1666
G1 X4.1064 Y0.1614
G1 X4.1214 Y0.1493
G1 X4.1364 Y0.1366
G1 X4.1514 Y0.119
G1 X4.1612 Y0.1067
G1 X4.17 Y0.0917
G1 X4.1781 Y0.0767
G1 X4.1842 Y0.0617
G1 X4.1889 Y0.0467
G1 X4.1927 Y0.0317
G1 X4.1951 Y0.0167
G1 X4.1969 Y0.0017
G1 X4.1973 Y-0.0133
G1 X4.1975 Y-0.0282
G1 Y-0.0882
G1 Y-1.8568
G1 Y-1.8718
G1 X4.1973 Y-1.8867
G1 X4.1969 Y-1.9017
G1 X4.1951 Y-1.9167
G1 X4.1927 Y-1.9317
G1 X4.1889 Y-1.9467
G1 X4.1842 Y-1.9617
G1 X4.1781 Y-1.9767
G1 X4.17 Y-1.9917
G1 X4.1612 Y-2.0067
G1 X4.1514 Y-2.019
G1 X4.1363 Y-2.0366
G1 X4.1214 Y-2.0493
G1 X4.1064 Y-2.0614
G1 X4.0978 Y-2.0666
G1 X4.0914 Y-2.0702
G1 X4.0764 Y-2.0783
G1 X4.0614 Y-2.084
G1 X4.0464 Y-2.0892
G1 X4.0314 Y-2.0927
G1 X4.0164 Y-2.0952
G1 X4.0015 Y-2.0968
G1 X3.9865 Y-2.0974
G1 X3.9565 Y-2.0975
G1 X0.0435
G1 X0.0135 Y-2.0974
G1 X-0.0015 Y-2.0968
G1 X-0.0164 Y-2.0952
G1 X-0.0253 Y-2.0937
G1 X-0.0304 Y-2.0934 Z-0.7598
G1 X-0.0354 Y-2.0931 Z-0.7591
G1 X-0.0404 Y-2.0927 Z-0.758
G1 X-0.0452 Y-2.0924 Z-0.7565
G1 X-0.05 Y-2.0928 Z-0.7545
G1 X-0.0546 Y-2.0931 Z-0.7521
G1 X-0.059 Y-2.0934 Z-0.7494
G1 X-0.0631 Y-2.0937 Z-0.7462
G1 X-0.0669 Y-2.094 Z-0.7427
G1 X-0.0707 Y-2.0948 Z-0.7384
G1 X-0.074 Y-2.0954 Z-0.7338
G1 X-0.0769 Y-2.096 Z-0.7288
G1 X-0.0793 Y-2.0965 Z-0.7236
G1 X-0.0812 Y-2.0969 Z-0.7182
G1 X-0.0826 Y-2.0972 Z-0.7126
G1 X-0.0834 Y-2.0974 Z-0.7069
G1 X-0.0837 Z-0.7011
G0 Z0.2
G0 X2.9702 Y-2.1712
G0 Z-0.19
G1 Z-0.34 F38.197
G1 X2.9699 Y-2.1711 Z-0.3494
G1 X2.9691 Y-2.1709 Z-0.3588
G1 X2.9676 Y-2.1705 Z-0.3681
G1 X2.9657 Y-2.17 Z-0.3773
G1 X2.9631 Y-2.1692 Z-0.3864
G1 X2.9601 Y-2.1684 Z-0.3952
G1 X2.9564 Y-2.1674 Z-0.4039
G1 X2.9523 Y-2.1662 Z-0.4123
G1 X2.9477 Y-2.165 Z-0.4204
G1 X2.9426 Y-2.1635 Z-0.4282
G1 X2.937 Y-2.162 Z-0.4356
G1 X2.931 Y-2.1603 Z-0.4427
G1 X2.9246 Y-2.1585 Z-0.4493
G1 X2.9178 Y-2.1566 Z-0.4556
G1 X2.9106 Y-2.1547 Z-0.4614
G1 X2.9031 Y-2.1526 Z-0.4666
G1 X2.8953 Y-2.1504 Z-0.4714
G1 X2.8872 Y-2.1481 Z-0.4757
G1 X2.8789 Y-2.1458 Z-0.4795
G1 X2.8703 Y-2.1434 Z-0.4827
G1 X2.8616 Y-2.141 Z-0.4853
G1 X2.8528 Y-2.1386 Z-0.4873
G1 X2.8438 Y-2.1361 Z-0.4888
G1 X2.8348 Y-2.1336 Z-0.4897
G1 X2.8257 Y-2.131 Z-0.49
G3 X2.6222 Y-2.0975 I-0.2565 J-0.9224
G1 X2.5922 Y-2.0969
G1 X2.5889 Y-2.0966
G1 X2.5622 Y-2.0934
G1 X2.5322 Y-2.0894
G1 X2.5172 Y-2.0868
G1 X2.5022 Y-2.0833
G1 X2.4973 Y-2.0816
G1 X2.4723 Y-2.0724
G1 X2.4423 Y-2.0601
G1 X2.4273 Y-2.0532
G1 X2.4152 Y-2.048
G1 X2.3935 Y-2.0403
G1 X2.3655 Y-2.0322
G1 X2.3279 Y-2.0236
G1 X2.2841 Y-2.0163
G1 X2.24 Y-2.0111
G1 X2.1958 Y-2.0074
G1 X2.1515 Y-2.0047
G1 X2.1072 Y-2.0027
G1 X2.0628 Y-2.0013
G1 X2.0185 Y-2.0003
G1 X1.9741 Y-1.9995
G1 X1.9297 Y-1.999
G1 X1.8854 Y-1.9986
G1 X1.841 Y-1.9983
G1 X1.7966 Y-1.9981
G1 X1.7522 Y-1.9979
G1 X1.6953 Y-1.9978
G1 X1.6795 Y-1.9988
G1 X1.6639 Y-2.0019
G1 X1.6489 Y-2.007
G1 X1.6347 Y-2.014
G1 X1.6215 Y-2.0228
G1 X1.6177 Y-2.0257
G1 X1.602 Y-2.0366
G1 X1.5877 Y-2.0459
G1 X1.5727 Y-2.0532
G1 X1.5577 Y-2.0601
G1 X1.5277 Y-2.0724
G1 X1.5027 Y-2.0816
G1 X1.4978 Y-2.0833
G1 X1.4828 Y-2.0868
G1 X1.4678 Y-2.0894
G1 X1.4378 Y-2.0934
G1 X1.4111 Y-2.0966
G1 X1.4078 Y-2.0969
G1 X1.3846 Y-2.0974
G3 X1.3279 Y-2.1119 Z-0.488 I0.0083 J-0.1498
G3 X1.2431 Y-2.2553 Z-0.482 I0.065 J-0.1352 F100.
G3 X1.4024 Y-2.3968 I0.1498 J0.0082
G1 X2.3668 Y-2.3355
G3 X2.4899 Y-2.2557 I-0.0095 J0.1497
G3 X2.4727 Y-2.09 Z-0.488 I-0.1327 J0.0699
G3 X2.4273 Y-2.0532 Z-0.49 I-0.1154 J-0.0958 F38.197
G1 X2.4123 Y-2.0459
G1 X2.3973 Y-2.0362
G1 X2.3823 Y-2.0257
G1 X2.3523 Y-2.0027
G1 X2.3453 Y-1.9966
G1 X2.3361 Y-1.9895
G1 X2.3257 Y-1.9824
G1 X2.3128 Y-1.9746
G1 X2.2975 Y-1.9667
G1 X2.2784 Y-1.9581
G1 X2.2551 Y-1.9491
G1 X2.2258 Y-1.9399
G1 X2.1875 Y-1.9302
G1 X2.144 Y-1.9219
G1 X2.1 Y-1.9158
G1 X2.0559 Y-1.9112
G1 X2.0116 Y-1.9078
G1 X1.9673 Y-1.9052
G1 X1.923 Y-1.9033
G1 X1.8786 Y-1.9019
G1 X1.8343 Y-1.9008
G1 X1.8045 Y-1.9005
G1 X1.7885 Y-1.9014
G1 X1.7728 Y-1.9044
G1 X1.7576 Y-1.9094
G1 X1.7432 Y-1.9164
G1 X1.7299 Y-1.9253
G1 X1.7178 Y-1.9359
G1 X1.692 Y-1.9617
G1 X1.6777 Y-1.9759
G1 X1.6605 Y-1.9917
G1 X1.6477 Y-2.0027
G1 X1.6215 Y-2.0228
G3 X1.5845 Y-2.0681 Z-0.488 I0.0954 J-0.1157
G3 X1.6011 Y-2.2338 Z-0.482 I0.1324 J-0.0705 F100.
G3 X1.7259 Y-2.2882 I0.1158 J0.0953
G1 X2.2526 Y-2.2567
G3 X2.3541 Y-2.2085 I-0.009 J0.1497
G3 X2.3797 Y-2.0439 Z-0.488 I-0.1104 J0.1015
G3 X2.3453 Y-1.9966 Z-0.49 I-0.1361 J-0.0631 F38.197
G1 X2.3395 Y-1.9917
G1 X2.3223 Y-1.9759
G1 X2.3073 Y-1.961
G1 X2.263 Y-1.9167
G1 X2.2559 Y-1.9102
G1 X2.2462 Y-1.9025
G1 X2.2346 Y-1.8942
G1 X2.2203 Y-1.8853
G1 X2.2038 Y-1.8763
G1 X2.1834 Y-1.8667
G1 X2.1587 Y-1.8567
G1 X2.1284 Y-1.8466
G1 X2.0896 Y-1.8361
G1 X2.0462 Y-1.827
G1 X2.0023 Y-1.8201
G1 X1.9583 Y-1.8149
G1 X1.9141 Y-1.8109
G1 X1.8978 Y-1.8104
G1 X1.8813 Y-1.8109
G1 X1.865 Y-1.8137
G1 X1.8492 Y-1.8187
G1 X1.8343 Y-1.8257
G1 X1.8205 Y-1.8348
G1 X1.808 Y-1.8457
G1 X1.7178 Y-1.9359
G3 X1.6871 Y-1.9856 Z-0.488 I0.1097 J-0.1023
G3 X1.7252 Y-2.1478 Z-0.482 I0.1405 J-0.0526 F100.
G3 X1.8363 Y-2.1879 I0.1024 J0.1096
G1 X2.1621 Y-2.1688
G3 X2.2557 Y-2.1286 I-0.0088 J0.1497
G3 X2.2938 Y-1.9665 Z-0.488 I-0.1024 J0.1096
G3 X2.263 Y-1.9167 Z-0.49 I-0.1405 J-0.0526 F38.197
G1 X2.1731 Y-1.8268
G1 X2.1612 Y-1.816
G1 X2.1509 Y-1.8078
G1 X2.1386 Y-1.7991
G1 X2.1237 Y-1.7897
G1 X2.1062 Y-1.7802
G1 X2.085 Y-1.7701
G1 X2.059 Y-1.7597
G1 X2.032 Y-1.7507
G1 X2.0068 Y-1.7438
G1 X1.9858 Y-1.7395
G1 X1.9836 Y-1.7391
G1 X1.9649 Y-1.7378
G1 X1.9462 Y-1.7395
G1 X1.928 Y-1.7439
G1 X1.9107 Y-1.7512
G1 X1.8947 Y-1.761
G1 X1.8805 Y-1.7732
G3 X1.851 Y-1.8236 Z-0.488 I0.0971 J-0.0905
G3 X1.9085 Y-1.9771 Z-0.482 I0.1266 J-0.0401 F100.
G1 X1.9141 Y-1.9804
G1 X2.0125 Y-2.034
G3 X2.1451 Y-2.0307 I0.0635 J0.1166
G3 X2.2026 Y-1.8772 Z-0.488 I-0.0691 J0.1134
G3 X2.1731 Y-1.8268 Z-0.49 I-0.1266 J-0.0401 F38.197
G1 X2.0781 Y-1.7318
G1 X2.0695 Y-1.724
G1 X2.0622 Y-1.7181
G1 X2.0542 Y-1.7125
G1 X2.0467 Y-1.7078
G1 X2.0322 Y-1.7013
G1 X2.0168 Y-1.6972
G1 X2.0009 Y-1.6957
G1 X1.985 Y-1.6967
G1 X1.9695 Y-1.7002
G1 X1.9547 Y-1.7062
G1 X1.9411 Y-1.7144
G1 X1.929 Y-1.7247
G3 X1.9013 Y-1.776 Z-0.488 I0.0843 J-0.0786
G3 X1.8981 Y-1.7978 Z-0.4872 I0.1119 J-0.0274 F100.
G3 X1.9882 Y-1.9059 Z-0.482 I0.1039 J-0.005
G3 X2.008 Y-1.9066 I0.0138 J0.1031
G3 X2.1043 Y-1.7837 Z-0.488 I-0.006 J0.1039
G3 X2.0781 Y-1.7318 Z-0.49 I-0.1023 J-0.0191 F38.197
G1 X2.0375 Y-1.6912
G1 X2.03 Y-1.6844
G1 X2.0262 Y-1.6818
G1 X2.0225 Y-1.6798
G1 X2.0156 Y-1.6769
G1 X2.0075 Y-1.675
G1 X2. Y-1.6744
G1 X1.9925 Y-1.675
G1 X1.9844 Y-1.6769
G1 X1.9775 Y-1.6798
G1 X1.9738 Y-1.6818
G1 X1.97 Y-1.6844
G1 X1.9625 Y-1.6912
G1 X1.808 Y-1.8457
G1 X1.8046 Y-1.85 Z-0.4897
G1 X1.8011 Y-1.8543 Z-0.489
G1 X1.7977 Y-1.8585 Z-0.4877
G1 X1.7944 Y-1.8626 Z-0.4858
G1 X1.792 Y-1.8667 Z-0.4837
G1 X1.7896 Y-1.8707 Z-0.4811
G1 X1.7874 Y-1.8745 Z-0.478
G1 X1.7853 Y-1.878 Z-0.4746
G1 X1.7834 Y-1.8813 Z-0.4709
G1 X1.782 Y-1.8845 Z-0.4667
G1 X1.7808 Y-1.8873 Z-0.4622
G1 X1.7797 Y-1.8897 Z-0.4574
G1 X1.7788 Y-1.8918 Z-0.4524
G1 X1.7781 Y-1.8934 Z-0.4473
G1 X1.7776 Y-1.8945 Z-0.442
G1 X1.7773 Y-1.8952 Z-0.4366
G1 X1.7772 Y-1.8954 Z-0.4311
G0 Z0.2
G0 X0.8121 Y-1.2577
G0 Z0.1
G3 X1.0057 Y-1.0273 Z0.0754 I0.0146 J0.1843 F9.167
G3 X0.7256 Y-0.9192 Z0.0508 I-0.1787 J-0.0459
G3 X0.7143 Y-1.2185 Z0.0263 I0.1012 J-0.1537
G3 X1.0004 Y-1.1323 Z0.0017 I0.1123 J0.1453
G3 X0.8264 Y-0.8902 Z-0.0229 I-0.1734 J0.0589
G3 X0.6543 Y-1.1328 Z-0.0475 I0.0005 J-0.1828
G3 X0.9389 Y-1.2167 Z-0.0721 I0.1723 J0.0597
G3 X0.9259 Y-0.9209 Z-0.0967 I-0.1121 J0.1432
G3 X0.651 Y-1.0289 Z-0.1212 I-0.0989 J-0.1522
G3 X0.842 Y-1.2533 Z-0.1458 I0.1756 J-0.044
G3 X0.9919 Y-1.0005 Z-0.1704 I-0.0153 J0.18
G3 X0.7048 Y-0.9409 Z-0.195 I-0.1649 J-0.0727
G3 X0.7415 Y-1.2311 Z-0.2196 I0.122 J-0.132
G3 X1.0035 Y-1.1025 Z-0.2442 I0.0851 J0.1579
G3 X0.7973 Y-0.8969 Z-0.2687 I-0.1765 J0.0292
G3 X0.6701 Y-1.1581 Z-0.2933 I0.0296 J-0.176
G3 X0.9577 Y-1.1936 Z-0.3179 I0.1565 J0.0849
G3 X0.8981 Y-0.9107 Z-0.3425 I-0.1308 J0.1201
G3 X0.6505 Y-1.0585 Z-0.3671 I-0.071 J-0.1623
G3 X0.8701 Y-1.2443 Z-0.3917 I0.1762 J-0.0145
G3 X0.9743 Y-0.9769 Z-0.4162 I-0.0434 J0.1709
G3 X0.6882 Y-0.9652 Z-0.4408 I-0.1472 J-0.0963
G3 X0.7698 Y-1.2389 Z-0.4654 I0.1385 J-0.1077
G3 X1.0016 Y-1.0733 Z-0.49 I0.0568 J0.1656
G3 X0.6516 I-0.175 J0.
G3 X1.0016 I0.175 J0.
G1 X1.0018 Y-1.0622 F38.197
G1 X1.0065 Y-1.0181
G1 X1.0079 Y-1.0127
G1 X1.009 Y-1.0068
G1 X1.0096 Y-1.0009
G1 X1.0098 Y-0.9949
G1 X1.0096 Y-0.9888
G1 X1.009 Y-0.9824
G1 X1.008 Y-0.9757
G1 X1.0065 Y-0.9686
G1 X1.0045 Y-0.9613
G1 X1.0019 Y-0.9537
G1 X0.9988 Y-0.946
G1 X0.9951 Y-0.9381
G1 X0.9907 Y-0.9302
G1 X0.9857 Y-0.9222
G1 X0.98 Y-0.9143
G1 X0.9737 Y-0.9065
G1 X0.9668 Y-0.8988
G1 X0.9592 Y-0.8914
G1 X0.951 Y-0.8843
G1 X0.9421 Y-0.8775
G1 X0.9327 Y-0.8711
G1 X0.9227 Y-0.8651
G1 X0.9122 Y-0.8596
G1 X0.9012 Y-0.8547
G1 X0.8898 Y-0.8504
G1 X0.878 Y-0.8467
G1 X0.8659 Y-0.8437
G1 X0.8534 Y-0.8413
G1 X0.8407 Y-0.8397
G1 X0.8278 Y-0.8389
G1 X0.8148 Y-0.8387
G1 X0.8017 Y-0.8394
G1 X0.7885 Y-0.8408
G1 X0.7754 Y-0.8431
G1 X0.7624 Y-0.8461
G1 X0.7495 Y-0.8499
G1 X0.7368 Y-0.8544
G1 X0.7243 Y-0.8597
G1 X0.7121 Y-0.8658
G1 X0.7003 Y-0.8726
G1 X0.6889 Y-0.8801
G1 X0.6778 Y-0.8883
G1 X0.6673 Y-0.8971
G1 X0.6573 Y-0.9066
G1 X0.6478 Y-0.9167
G1 X0.6389 Y-0.9273
G1 X0.6307 Y-0.9384
G1 X0.6231 Y-0.95
G1 X0.6162 Y-0.9621
G1 X0.61 Y-0.9746
G1 X0.6046 Y-0.9874
G1 X0.5999 Y-1.0005
G1 X0.596 Y-1.0139
G1 X0.5928 Y-1.0275
G1 X0.5905 Y-1.0413
G1 X0.589 Y-1.0552
G1 X0.5883 Y-1.0691
G1 X0.5885 Y-1.0831
G1 X0.5895 Y-1.0971
G1 X0.5912 Y-1.111
G1 X0.5938 Y-1.1247
G1 X0.5973 Y-1.1383
G1 X0.6015 Y-1.1517
G1 X0.6064 Y-1.1648
G1 X0.6122 Y-1.1776
G1 X0.6187 Y-1.19
G1 X0.6259 Y-1.202
G1 X0.6338 Y-1.2136
G1 X0.6424 Y-1.2247
G1 X0.6516 Y-1.2353
G1 X0.6614 Y-1.2453
G1 X0.6718 Y-1.2547
G1 X0.6827 Y-1.2635
G1 X0.6942 Y-1.2716
G1 X0.7061 Y-1.2791
G1 X0.7184 Y-1.2858
G1 X0.7311 Y-1.2918
G1 X0.7441 Y-1.2971
G1 X0.7574 Y-1.3015
G1 X0.7709 Y-1.3052
G1 X0.7847 Y-1.3081
G1 X0.7986 Y-1.3101
G1 X0.8125 Y-1.3114
G1 X0.8266 Y-1.3118
G1 X0.8406 Y-1.3114
G1 X0.8546 Y-1.3102
G1 X0.8685 Y-1.3081
G1 X0.8822 Y-1.3052
G1 X0.8958 Y-1.3016
G1 X0.9091 Y-1.2971
G1 X0.9221 Y-1.2919
G1 X0.9348 Y-1.2859
G1 X0.9471 Y-1.2791
G1 X0.959 Y-1.2717
G1 X0.9705 Y-1.2635
G1 X0.9814 Y-1.2547
G1 X0.9918 Y-1.2453
G1 X1.0016 Y-1.2353
G1 X1.0109 Y-1.2247
G1 X1.0195 Y-1.2136
G1 X1.0274 Y-1.202
G1 X1.0346 Y-1.19
G1 X1.0429 Y-1.1742
G1 X1.0549 Y-1.1474
G1 X1.064 Y-1.1237
G1 X1.0703 Y-1.1036
G1 X1.0749 Y-1.0852
G1 X1.0781 Y-1.0681
G1 X1.0803 Y-1.0517
G1 X1.0814 Y-1.0359
G1 X1.0815 Y-1.0206
G1 X1.0808 Y-1.0057
G1 X1.0793 Y-0.9911
G1 X1.0769 Y-0.9768
G1 X1.0736 Y-0.9627
G1 X1.0696 Y-0.9489
G1 X1.0648 Y-0.9353
G1 X1.0591 Y-0.922
G1 X1.0527 Y-0.909
G1 X1.0454 Y-0.8963
G1 X1.0374 Y-0.8841
G1 X1.0286 Y-0.8722
G1 X1.0191 Y-0.8607
G1 X1.0088 Y-0.8498
G1 X0.9978 Y-0.8394
G1 X0.986 Y-0.8295
G1 X0.9737 Y-0.8203
G1 X0.9606 Y-0.8118
G1 X0.947 Y-0.8039
G1 X0.9329 Y-0.7969
G1 X0.9182 Y-0.7906
G1 X0.903 Y-0.7852
G1 X0.8874 Y-0.7806
G1 X0.8715 Y-0.7769
G1 X0.8552 Y-0.7741
G1 X0.8387 Y-0.7723
G1 X0.8219 Y-0.7714
G1 X0.8051 Y-0.7716
G1 X0.7881 Y-0.7727
G1 X0.7712 Y-0.7749
G1 X0.7544 Y-0.778
G1 X0.7376 Y-0.7822
G1 X0.7211 Y-0.7873
G1 X0.7049 Y-0.7935
G1 X0.6889 Y-0.8006
G1 X0.6734 Y-0.8087
G1 X0.6583 Y-0.8177
G1 X0.6437 Y-0.8276
G1 X0.6297 Y-0.8384
G1 X0.6164 Y-0.85
G1 X0.6037 Y-0.8624
G1 X0.5917 Y-0.8755
G1 X0.5805 Y-0.8894
G1 X0.5701 Y-0.9039
G1 X0.5606 Y-0.9191
G1 X0.5519 Y-0.9348
G1 X0.5442 Y-0.951
G1 X0.5375 Y-0.9676
G1 X0.5317 Y-0.9846
G1 X0.527 Y-1.002
G1 X0.5233 Y-1.0196
G1 X0.5206 Y-1.0374
G1 X0.5189 Y-1.0554
G1 X0.5184 Y-1.0734
G1 X0.5189 Y-1.0915
G1 X0.5204 Y-1.1095
G1 X0.523 Y-1.1274
G1 X0.5267 Y-1.1451
G1 X0.5314 Y-1.1626
G1 X0.5371 Y-1.1798
G1 X0.5438 Y-1.1966
G1 X0.5515 Y-1.213
G1 X0.5602 Y-1.2289
G1 X0.5698 Y-1.2443
G1 X0.5803 Y-1.2591
G1 X0.5916 Y-1.2733
G1 X0.6037 Y-1.2868
G1 X0.6167 Y-1.2995
G1 X0.6303 Y-1.3115
G1 X0.6447 Y-1.3226
G1 X0.6596 Y-1.3329
G1 X0.6752 Y-1.3423
G1 X0.6912 Y-1.3507
G1 X0.7078 Y-1.3582
G1 X0.7247 Y-1.3647
G1 X0.7421 Y-1.3702
G1 X0.7597 Y-1.3746
G1 X0.7775 Y-1.3781
G1 X0.7955 Y-1.3804
G1 X0.8136 Y-1.3817
G1 X0.8318 Y-1.382
G1 X0.8499 Y-1.3811
G1 X0.868 Y-1.3792
G1 X0.8859 Y-1.3763
G1 X0.9037 Y-1.3722
G1 X0.9211 Y-1.3672
G1 X0.9382 Y-1.3611
G1 X0.955 Y-1.3541
G1 X0.9713 Y-1.346
G1 X0.9871 Y-1.337
G1 X1.0023 Y-1.3271
G1 X1.0169 Y-1.3164
G1 X1.0312 Y-1.3045
G1 X1.0451 Y-1.2915
G1 X1.0595 Y-1.2763
G1 X1.0738 Y-1.2593
G1 X1.0875 Y-1.2411
G1 X1.1 Y-1.222
G1 X1.1114 Y-1.2023
G1 X1.1215 Y-1.1822
G1 X1.1302 Y-1.1619
G1 X1.1376 Y-1.1415
G1 X1.1437 Y-1.121
G1 X1.1484 Y-1.1005
G1 X1.152 Y-1.0801
G1 X1.1542 Y-1.0599
G1 X1.1553 Y-1.0398
G1 X1.1552 Y-1.0199
G1 X1.1539 Y-1.0002
G1 X1.1515 Y-0.9808
G1 X1.1479 Y-0.9616
G1 X1.1433 Y-0.9428
G1 X1.1376 Y-0.9244
G1 X1.1308 Y-0.9063
G1 X1.1229 Y-0.8887
G1 X1.1141 Y-0.8715
G1 X1.1042 Y-0.8549
G1 X1.0933 Y-0.8388
G1 X1.0922 Y-0.8373
G1 X1.0809 Y-0.8246
G1 X1.068 Y-0.8136
G1 X1.0537 Y-0.8045
G1 X1.0382 Y-0.7975
G1 X1.0219 Y-0.7928
G1 X1.018 Y-0.7918
G1 X1.003 Y-0.7881
G1 X0.988 Y-0.7838
G1 X0.9727 Y-0.7776
G1 X0.958 Y-0.7716
G1 X0.9281 Y-0.7579
G1 X0.9131 Y-0.7509
G1 X0.9062 Y-0.7477
G1 X0.8981 Y-0.7436
G1 X0.8956 Y-0.7421
G1 X0.8872 Y-0.7373
G1 X0.8774 Y-0.7325
G1 X0.8664 Y-0.7278
G1 X0.8548 Y-0.7238
G1 X0.8424 Y-0.7202
G1 X0.8289 Y-0.7171
G1 X0.8145 Y-0.7148
G1 X0.7997 Y-0.7132
G1 X0.7842 Y-0.7125
G1 X0.7679 Y-0.7127
G1 X0.751 Y-0.714
G1 X0.7336 Y-0.7163
G1 X0.716 Y-0.7197
G1 X0.6982 Y-0.7242
G1 X0.6804 Y-0.7298
G1 X0.6626 Y-0.7367
G1 X0.6448 Y-0.7448
G1 X0.6272 Y-0.7541
G1 X0.6098 Y-0.7645
G1 X0.5929 Y-0.7762
G1 X0.5765 Y-0.7889
G1 X0.5608 Y-0.8028
G1 X0.5457 Y-0.8176
G1 X0.5314 Y-0.8335
G1 X0.5239 Y-0.8429
G1 X0.5146 Y-0.8563
G1 X0.5072 Y-0.8708
G1 X0.5019 Y-0.8861
G1 X0.4986 Y-0.9021
G1 X0.4975 Y-0.9183
G1 Y-1.1823
G1 X0.4982 Y-1.1959
G1 X0.4994 Y-1.2068
G1 X0.5014 Y-1.2188
G1 X0.5043 Y-1.2313
G1 X0.508 Y-1.2441
G1 X0.5128 Y-1.2575
G1 X0.5188 Y-1.2714
G1 X0.5258 Y-1.2854
G1 X0.5338 Y-1.2994
G1 X0.543 Y-1.3135
G1 X0.5535 Y-1.3276
G1 X0.5652 Y-1.3415
G1 X0.578 Y-1.3551
G1 X0.5919 Y-1.3682
G1 X0.5993 Y-1.3744
G1 X0.6129 Y-1.3842
G1 X0.6277 Y-1.3921
G1 X0.6436 Y-1.3978
G1 X0.66 Y-1.4013
G1 X0.6768 Y-1.4025
G3 X0.7329 Y-1.3866 Z-0.488 I-0.0042 J0.1216
G3 X0.7846 Y-1.2336 Z-0.482 I-0.0603 J0.1057 F100.
G3 X0.7784 Y-1.2209 I-0.1121 J-0.0473
G1 X0.725 Y-1.1266
G3 X0.6664 Y-1.0745 I-0.1059 J-0.06
G3 X0.5134 Y-1.1262 Z-0.488 I-0.0473 J-0.1121
G3 X0.4975 Y-1.1823 Z-0.49 I0.1057 J-0.0603 F38.197
G1 Y-1.2872
G1 X0.4979 Y-1.296
G1 X0.4988 Y-1.3042
G1 X0.5003 Y-1.3131
G1 X0.5026 Y-1.3228
G1 X0.5055 Y-1.3327
G1 X0.5121 Y-1.3474
G1 X0.5208 Y-1.361
G1 X0.5316 Y-1.373
G1 X0.544 Y-1.3833
G1 X0.5579 Y-1.3915
G1 X0.5729 Y-1.3976
G1 X0.5886 Y-1.4013
G1 X0.6047 Y-1.4025
G3 X0.6606 Y-1.3862 Z-0.488 I-0.0041 J0.1179
G3 X0.681 Y-1.371 Z-0.4871 I-0.06 J0.1016 F100.
G3 X0.6989 Y-1.2327 Z-0.482 I-0.0744 J0.0799
G3 X0.6701 Y-1.2023 I-0.0923 J-0.0583
G3 X0.5149 Y-1.2317 Z-0.488 I-0.0635 J-0.0888
G3 X0.4975 Y-1.2872 Z-0.49 I0.0917 J-0.0593 F38.197
G1 Y-1.3472
G1 Y-1.3513
G1 X0.4976 Y-1.3547
G1 X0.4986 Y-1.3622
G1 X0.5007 Y-1.3697
G1 X0.5043 Y-1.3772
G1 X0.5083 Y-1.3829
G1 X0.513 Y-1.3882
G1 X0.5178 Y-1.3921
G1 X0.5233 Y-1.3958
G1 X0.5308 Y-1.3993
G1 X0.5383 Y-1.4015
G1 X0.5458 Y-1.4024
G1 X0.5533 Y-1.4025
G1 X0.9363
G1 X0.949 Y-1.4019
G1 X0.9603 Y-1.4006
G1 X0.9723 Y-1.3986
G1 X0.9845 Y-1.3958
G1 X0.9976 Y-1.3919
G1 X1.0114 Y-1.387
G1 X1.0253 Y-1.3811
G1 X1.04 Y-1.3737
G1 X1.0553 Y-1.3649
G1 X1.0705 Y-1.355
G1 X1.0858 Y-1.3436
G1 X1.1013 Y-1.3306
G1 X1.1168 Y-1.3161
G1 X1.1318 Y-1.3001
G1 X1.1461 Y-1.283
G1 X1.1596 Y-1.2647
G1 X1.1723 Y-1.2453
G1 X1.184 Y-1.2248
G1 X1.1947 Y-1.2034
G1 X1.2041 Y-1.1813
G1 X1.2122 Y-1.1586
G1 X1.219 Y-1.1354
G1 X1.2244 Y-1.1118
G1 X1.2284 Y-1.0879
G1 X1.231 Y-1.0639
G1 X1.2322 Y-1.0398
G1 X1.2319 Y-1.0158
G1 X1.2303 Y-0.9918
G1 X1.2272 Y-0.968
G1 X1.2228 Y-0.9445
G1 X1.2169 Y-0.9213
G1 X1.2101 Y-0.8996
G1 X1.2028 Y-0.8803
G1 X1.202 Y-0.8785
G1 X1.1933 Y-0.8626
G1 X1.1824 Y-0.8481
G1 X1.1693 Y-0.8354
G1 X1.1546 Y-0.8248
G1 X1.1384 Y-0.8166
G1 X1.1211 Y-0.8108
G1 X1.1032 Y-0.8078
G1 X1.093 Y-0.8068
G1 X1.078 Y-0.8047
G1 X1.063 Y-0.8016
G1 X1.048 Y-0.7984
G1 X1.0219 Y-0.7928
G3 X0.9634 Y-0.7938 Z-0.488 I-0.0267 J-0.1476
G3 X0.8476 Y-0.9135 Z-0.482 I0.0318 J-0.1466 F100.
G1 X0.8474 Y-0.9149
G1 X0.7937 Y-1.2272
G3 X0.7916 Y-1.2475 I0.1478 J-0.0254
G3 X0.8794 Y-1.3891 Z-0.488 I0.1499 J-0.0051
G3 X0.9363 Y-1.4025 Z-0.49 I0.0622 J0.1365 F38.197
G1 X1.0412
G1 X1.0513 Y-1.402
G1 X1.0597 Y-1.4011
G1 X1.0693 Y-1.3995
G1 X1.0791 Y-1.3972
G1 X1.09 Y-1.394
G1 X1.1013 Y-1.3899
G1 X1.1133 Y-1.3848
G1 X1.1262 Y-1.3784
G1 X1.139 Y-1.371
G1 X1.1525 Y-1.3622
G1 X1.1666 Y-1.3517
G1 X1.1804 Y-1.3402
G1 X1.1943 Y-1.3271
G1 X1.2083 Y-1.3122
G1 X1.2222 Y-1.2956
G1 X1.2353 Y-1.2779
G1 X1.2478 Y-1.2588
G1 X1.2596 Y-1.2382
G1 X1.2705 Y-1.2161
G1 X1.2804 Y-1.1929
G1 X1.2891 Y-1.1685
G1 X1.2965 Y-1.1432
G1 X1.3025 Y-1.1171
G1 X1.307 Y-1.0905
G1 X1.3099 Y-1.0633
G1 X1.3112 Y-1.0359
G1 X1.311 Y-1.0083
G1 X1.3091 Y-0.9811
G1 X1.3061 Y-0.9582
G1 X1.3021 Y-0.9367
G1 X1.2975 Y-0.9186
G1 X1.2922 Y-0.9017
G1 X1.2864 Y-0.8863
G1 X1.28 Y-0.8721
G1 X1.27 Y-0.8563
G1 X1.2577 Y-0.8422
G1 X1.2433 Y-0.8302
G1 X1.2271 Y-0.8206
G1 X1.2097 Y-0.8137
G1 X1.1914 Y-0.8097
G1 X1.1727 Y-0.8086
G1 X1.1679 Y-0.8087
G1 X1.1379
G1 X1.123
G1 X1.108 Y-0.8082
G1 X1.1032 Y-0.8078
G3 X1.0455 Y-0.8169 Z-0.488 I-0.0081 J-0.1348
G3 X0.9616 Y-0.9223 Z-0.4832 I0.0496 J-0.1256 F100.
G1 X0.9563 Y-0.9575 Z-0.482
G1 X0.9137 Y-1.2396
G1 X0.9125 Y-1.2474 Z-0.4823
G3 X0.9847 Y-1.3879 Z-0.488 I0.1335 J-0.0202
G3 X1.0412 Y-1.4025 Z-0.49 I0.0613 J0.1203 F38.197
G1 X1.1312
G1 X1.1406 Y-1.402
G1 X1.1487 Y-1.4011
G1 X1.1569 Y-1.3997
G1 X1.1664 Y-1.3976
G1 X1.176 Y-1.3947
G1 X1.1866 Y-1.3909
G1 X1.1977 Y-1.3862
G1 X1.2092 Y-1.3805
G1 X1.2216 Y-1.3733
G1 X1.2339 Y-1.3653
G1 X1.2469 Y-1.3557
G1 X1.2603 Y-1.3444
G1 X1.2734 Y-1.332
G1 X1.2867 Y-1.3179
G1 X1.3002 Y-1.3018
G1 X1.3133 Y-1.2842
G1 X1.3256 Y-1.2653
G1 X1.3375 Y-1.2445
G1 X1.3487 Y-1.2219
G1 X1.359 Y-1.1976
G1 X1.3682 Y-1.1719
G1 X1.376 Y-1.1452
G1 X1.3824 Y-1.1176
G1 X1.3872 Y-1.089
G1 X1.3903 Y-1.0604
G1 X1.3916 Y-1.0325
G1 X1.3914 Y-1.0059
G1 X1.3896 Y-0.9803
G1 X1.3865 Y-0.9565
G1 X1.3827 Y-0.9362
G1 X1.3782 Y-0.9181
G1 X1.3729 Y-0.9014
G1 X1.3672 Y-0.8864
G1 X1.3609 Y-0.8723
G1 X1.354 Y-0.8591
G1 X1.347 Y-0.8474
G1 X1.3355 Y-0.8333
G1 X1.3218 Y-0.8213
G1 X1.3063 Y-0.8117
G1 X1.2895 Y-0.8048
G1 X1.2717 Y-0.8008
G1 X1.2535 Y-0.7998
G1 X1.2354 Y-0.8019
G1 X1.2279 Y-0.8034
G1 X1.2129 Y-0.806
G1 X1.2004 Y-0.8076
G1 X1.1829 Y-0.8084
G1 X1.1727 Y-0.8086
G3 X1.1165 Y-0.8244 Z-0.488 I0.0075 J-0.1348
G3 X1.0464 Y-0.9251 Z-0.4837 I0.0637 J-0.119 F100.
G1 X1.0398 Y-0.974 Z-0.482
G1 X1.0035 Y-1.2396
G1 X1.0022 Y-1.2493 Z-0.4823
G3 X1.0747 Y-1.3879 Z-0.488 I0.1338 J-0.0183
G3 X1.1312 Y-1.4025 Z-0.49 I0.0613 J0.1203 F38.197
G1 X1.2129
G1 X1.2252 Y-1.4019
G1 X1.2327 Y-1.4011
G1 X1.2408 Y-1.3997
G1 X1.2495 Y-1.3977
G1 X1.2591 Y-1.3949
G1 X1.2599 Y-1.3946
G1 X1.2761 Y-1.3874
G1 X1.2911 Y-1.3779
G1 X1.3045 Y-1.3663
G3 X1.3119 Y-1.3115 I-0.0349 J0.0325
G3 X1.2526 Y-1.2892 I-0.0422 J-0.0222 F100.
G1 X1.1975 Y-1.3103
G3 X1.169 Y-1.369 I0.017 J-0.0446
G3 X1.2129 Y-1.4025 I0.0456 J0.0141 F38.197
G1 X1.2429
G1 X1.2504 Y-1.4024
G1 X1.2579 Y-1.4014
G1 X1.2654 Y-1.3992
G1 X1.2729 Y-1.3956
G1 X1.2781 Y-1.3921
G1 X1.2879 Y-1.3829
G1 X1.3628 Y-1.308
G1 X1.3786 Y-1.2905
G1 X1.3904 Y-1.2759
G1 X1.4015 Y-1.2602
G1 X1.4127 Y-1.2424
G1 X1.4236 Y-1.2223
G1 X1.4338 Y-1.2008
G1 X1.4429 Y-1.178
G1 X1.4512 Y-1.1534
G1 X1.4582 Y-1.1274
G1 X1.4638 Y-1.1004
G1 X1.4679 Y-1.0729
G1 X1.4703 Y-1.0457
G1 X1.4711 Y-1.0191
G1 X1.4703 Y-0.9934
G1 X1.4681 Y-0.9687
G1 X1.4646 Y-0.9454
G1 X1.46 Y-0.9233
G1 X1.4551 Y-0.9052
G1 X1.449 Y-0.8873
G1 X1.4432 Y-0.8728
G1 X1.4362 Y-0.8579
G1 X1.4295 Y-0.8457
G1 X1.4216 Y-0.8332
G1 X1.414 Y-0.8225
G1 X1.4103 Y-0.818
G1 X1.3986 Y-0.8057
G1 X1.3848 Y-0.7957
G1 X1.3696 Y-0.7882
G1 X1.3532 Y-0.7835
G1 X1.3363 Y-0.7816
G1 X1.3194 Y-0.7828
G1 X1.3029 Y-0.7869
G1 X1.2879 Y-0.7905
G1 X1.2729 Y-0.7938
G1 X1.2429 Y-0.8004
G1 X1.2354 Y-0.8019
G3 X1.2165 Y-0.807 Z-0.4893 I0.0293 J-0.1471
G3 X1.1804 Y-0.8222 Z-0.488 I0.0887 J-0.2609
G3 X1.0582 Y-0.9456 Z-0.482 I0.1248 J-0.2457 F100.
G3 X1.1459 Y-1.2928 I0.2469 J-0.1224
G3 X1.2478 Y-1.3375 Z-0.4858 I0.1593 J0.2249
G3 X1.3111 Y-1.3362 Z-0.488 I0.029 J0.1363
G1 X1.3118 Y-1.3361
G3 X1.3628 Y-1.308 Z-0.49 I-0.0299 J0.1149 F38.197
G1 X1.4678 Y-1.203
G1 X1.479 Y-1.1906
G1 X1.4865 Y-1.1813
G1 X1.4937 Y-1.1712
G1 X1.5013 Y-1.1591
G1 X1.5083 Y-1.1462
G1 X1.5153 Y-1.1313
G1 X1.522 Y-1.1148
G1 X1.5278 Y-1.0974
G1 X1.533 Y-1.0783
G1 X1.5372 Y-1.0577
G1 X1.5404 Y-1.0362
G1 X1.5423 Y-1.0143
G1 X1.543 Y-0.9922
G1 X1.5423 Y-0.9701
G1 X1.5404 Y-0.9483
G1 X1.5372 Y-0.9272
G1 X1.5329 Y-0.9067
G1 X1.5276 Y-0.887
G1 X1.5218 Y-0.8697
G1 X1.5149 Y-0.8528
G1 X1.5085 Y-0.8391
G1 X1.501 Y-0.8254
G1 X1.4937 Y-0.8138
G1 X1.4859 Y-0.8029
G1 X1.4777 Y-0.7927
G1 X1.4698 Y-0.784
G1 X1.4565 Y-0.7731
G1 X1.4416 Y-0.7645
G1 X1.4254 Y-0.7587
G1 X1.4084 Y-0.7557
G1 X1.3912 Y-0.7556
G1 X1.3742 Y-0.7585
G1 X1.358 Y-0.7643
G1 X1.3285 Y-0.7776
G1 X1.3179 Y-0.7817
G1 X1.3029 Y-0.7869
G3 X1.2848 Y-0.7944 Z-0.4893 I0.0486 J-0.1419
G3 X1.2512 Y-0.8147 Z-0.488 I0.105 J-0.2116
G3 X1.1581 Y-0.96 Z-0.482 I0.1386 J-0.1913 F100.
G3 X1.2497 Y-1.1962 I0.2317 J-0.0461
G3 X1.2809 Y-1.2156 Z-0.4833 I0.1401 J0.1902
G3 X1.4161 Y-1.2313 Z-0.488 I0.0881 J0.1696
G1 X1.4167 Y-1.2311
G3 X1.4678 Y-1.203 Z-0.49 I-0.0299 J0.1149 F38.197
G1 X1.5485 Y-1.1224
G1 X1.5563 Y-1.1137
G1 X1.5623 Y-1.1062
G1 X1.5681 Y-1.098
G1 X1.5741 Y-1.0885
G1 X1.5798 Y-1.0779
G1 X1.5853 Y-1.0664
G1 X1.5906 Y-1.0532
G1 X1.5953 Y-1.0393
G1 X1.5994 Y-1.0242
G1 X1.6028 Y-1.0077
G1 X1.6054 Y-0.9903
G1 X1.6069 Y-0.9723
G1 X1.6075 Y-0.9538
G1 X1.6069 Y-0.9348
G1 X1.6052 Y-0.9158
G1 X1.6024 Y-0.8968
G1 X1.5985 Y-0.8782
G1 X1.5935 Y-0.86
G1 X1.5876 Y-0.8425
G1 X1.5814 Y-0.827
G1 X1.5745 Y-0.8125
G1 X1.5674 Y-0.7996
G1 X1.5602 Y-0.7879
G1 X1.5521 Y-0.7766
G1 X1.5445 Y-0.7671
G1 X1.5357 Y-0.7574
G1 X1.5345 Y-0.7563
G1 X1.5213 Y-0.7453
G1 X1.5066 Y-0.7366
G1 X1.4907 Y-0.7304
G1 X1.4739 Y-0.7268
G1 X1.4568 Y-0.726
G1 X1.4398 Y-0.7279
G1 X1.4233 Y-0.7326
G1 X1.4078 Y-0.7398
G1 X1.3928 Y-0.7481
G1 X1.3778 Y-0.7552
G1 X1.358 Y-0.7643
G3 X1.3407 Y-0.7735 Z-0.4893 I0.062 J-0.1366
G3 X1.3131 Y-0.7935 Z-0.4882 I0.1248 J-0.2005
G1 X1.3092 Y-0.7969 Z-0.488
G3 X1.24 Y-0.9536 Z-0.482 I0.1368 J-0.154 F100.
G3 X1.3288 Y-1.1203 I0.206 J0.0027
G3 X1.4968 Y-1.1506 Z-0.488 I0.1172 J0.1694
G1 X1.4974 Y-1.1504
G3 X1.5485 Y-1.1224 Z-0.49 I-0.0299 J0.1149 F38.197
G1 X1.6177 Y-1.0531
G1 X1.6224 Y-1.0479
G1 X1.6276 Y-1.0415
G1 X1.6325 Y-1.0345
G1 X1.6377 Y-1.0262
G1 X1.6426 Y-1.0174
G1 X1.6473 Y-1.0073
G1 X1.6518 Y-0.9961
G1 X1.6558 Y-0.9843
G1 X1.6593 Y-0.9712
G1 X1.6622 Y-0.9571
G1 X1.6644 Y-0.9424
G1 X1.6658 Y-0.9269
G1 X1.6662 Y-0.9106
G1 X1.6657 Y-0.8939
G1 X1.6642 Y-0.877
G1 X1.6617 Y-0.86
G1 X1.6582 Y-0.8432
G1 X1.6537 Y-0.8267
G1 X1.6482 Y-0.8105
G1 X1.6425 Y-0.7963
G1 X1.6358 Y-0.7821
G1 X1.6292 Y-0.77
G1 X1.6217 Y-0.7581
G1 X1.6141 Y-0.7474
G1 X1.6063 Y-0.7377
G1 X1.5977 Y-0.7282
G1 X1.5896 Y-0.7203
G1 X1.5802 Y-0.7121
G1 X1.5714 Y-0.7053
G1 X1.5578 Y-0.6975
G1 X1.5432 Y-0.6919
G1 X1.5279 Y-0.6887
G1 X1.5123 Y-0.6878
G1 X1.4967 Y-0.6893
G1 X1.4816 Y-0.6933
G1 X1.4672 Y-0.6995
G1 X1.454 Y-0.7079
G1 X1.4378 Y-0.72
G1 X1.4214 Y-0.7319
G1 X1.4203 Y-0.7327
G1 X1.4078 Y-0.7398
G3 X1.3635 Y-0.778 Z-0.488 I0.074 J-0.1305
G3 X1.3513 Y-0.9442 Z-0.482 I0.1183 J-0.0922 F100.
G3 X1.36 Y-0.9577 I0.1305 J0.0739
G1 X1.4072 Y-1.0234
G1 X1.4093 Y-1.0263
G3 X1.566 Y-1.0813 Z-0.488 I0.1197 J0.0904
G1 X1.5666 Y-1.0812
G3 X1.6177 Y-1.0531 Z-0.49 I-0.0299 J0.1149 F38.197
G1 X1.6777 Y-0.9932
G1 X1.6817 Y-0.9887
G1 X1.6861 Y-0.9832
G1 X1.6908 Y-0.9766
G1 X1.6952 Y-0.9695
G1 X1.6997 Y-0.9613
G1 X1.704 Y-0.9523
G1 X1.7079 Y-0.9426
G1 X1.7115 Y-0.9317
G1 X1.7146 Y-0.9201
G1 X1.7172 Y-0.9078
G1 X1.7191 Y-0.8945
G1 X1.7204 Y-0.8805
G1 X1.7208 Y-0.866
G1 X1.7203 Y-0.8512
G1 X1.719 Y-0.8362
G1 X1.7167 Y-0.8209
G1 X1.7135 Y-0.8056
G1 X1.7093 Y-0.7904
G1 X1.7043 Y-0.7753
G1 X1.6984 Y-0.7607
G1 X1.6916 Y-0.7464
G1 X1.6842 Y-0.7329
G1 X1.6768 Y-0.7211
G1 X1.6686 Y-0.7097
G1 X1.6608 Y-0.6999
G1 X1.6519 Y-0.6902
G1 X1.6436 Y-0.6821
G1 X1.6343 Y-0.6739
G1 X1.6255 Y-0.6671
G1 X1.6182 Y-0.6622
G1 X1.604 Y-0.6542
G1 X1.5886 Y-0.6487
G1 X1.5725 Y-0.6459
G1 X1.5561
G1 X1.54 Y-0.6487
G1 X1.5246 Y-0.6543
G1 X1.5104 Y-0.6623
G1 X1.4978 Y-0.6727
G1 X1.4828 Y-0.6861
G1 X1.481 Y-0.6877
G1 X1.454 Y-0.7079
G3 X1.4149 Y-0.7514 Z-0.488 I0.0898 J-0.1201
G3 X1.4236 Y-0.9177 Z-0.482 I0.1289 J-0.0767 F100.
G3 X1.4346 Y-0.9308 I0.1202 J0.0897
G1 X1.4686 Y-0.967
G1 X1.4798 Y-0.9788 Z-0.4826
G3 X1.626 Y-1.0214 Z-0.488 I0.1092 J0.1028
G1 X1.6266 Y-1.0212
G3 X1.6777 Y-0.9932 Z-0.49 I-0.0299 J0.1149 F38.197
G1 X1.7133 Y-0.9575
G1 X1.7286 Y-0.9425
G1 X1.7336 Y-0.9373
G1 X1.7377 Y-0.9326
G1 X1.742 Y-0.927
G1 X1.7461 Y-0.9209
G1 X1.7503 Y-0.9139
G1 X1.7543 Y-0.9061
G1 X1.758 Y-0.8977
G1 X1.7616 Y-0.8883
G1 X1.7647 Y-0.8781
G1 X1.7674 Y-0.8674
G1 X1.7695 Y-0.8558
G1 X1.7711 Y-0.8432
G1 X1.7719 Y-0.8303
G1 X1.772 Y-0.8168
G1 X1.7713 Y-0.8027
G1 X1.7697 Y-0.7882
G1 X1.7671 Y-0.7734
G1 X1.7637 Y-0.7587
G1 X1.7593 Y-0.744
G1 X1.7541 Y-0.7295
G1 X1.748 Y-0.7153
G1 X1.7411 Y-0.7015
G1 X1.7335 Y-0.6884
G1 X1.7255 Y-0.6762
G1 X1.7168 Y-0.6646
G1 X1.7086 Y-0.6549
G1 X1.6993 Y-0.6451
G1 X1.6907 Y-0.637
G1 X1.6813 Y-0.6292
G1 X1.6719 Y-0.6223
G1 X1.663 Y-0.6165
G1 X1.6529 Y-0.6108
G1 X1.6376 Y-0.6047
G1 X1.6216 Y-0.6013
G1 X1.6051 Y-0.6005
G1 X1.5888 Y-0.6024
G1 X1.573 Y-0.6069
G1 X1.5582 Y-0.614
G1 X1.5447 Y-0.6234
G1 X1.533 Y-0.6349
G1 X1.5128 Y-0.6581
G1 X1.4978 Y-0.6727
G3 X1.464 Y-0.7206 Z-0.488 I0.1422 J-0.1362
G3 X1.445 Y-0.8365 Z-0.4839 I0.176 J-0.0882 F100.
G3 X1.4623 Y-0.8909 Z-0.482 I0.1706 J0.0242
G3 X1.5111 Y-0.9492 I0.1534 J0.0787
G3 X1.6784 Y-0.9728 Z-0.488 I0.1046 J0.137
G3 X1.7286 Y-0.9425 Z-0.49 I-0.0627 J0.1605 F38.197
G1 X1.7376 Y-0.9341
G1 X1.7454 Y-0.9275
G1 X1.7676 Y-0.9104
G1 X1.7722 Y-0.9071
G1 X1.7771 Y-0.903
G1 X1.7815 Y-0.8989
G1 X1.7857 Y-0.8945
G1 X1.79 Y-0.8894
G1 X1.7942 Y-0.8838
G1 X1.7984 Y-0.8774
G1 X1.8026 Y-0.8701
G1 X1.8065 Y-0.8624
G1 X1.8102 Y-0.8537
G1 X1.8137 Y-0.8442
G1 X1.8167 Y-0.8341
G1 X1.8192 Y-0.8232
G1 X1.8213 Y-0.8114
G1 X1.8227 Y-0.799
G1 X1.8233 Y-0.7862
G1 Y-0.7727
G1 X1.8223 Y-0.7586
G1 X1.8205 Y-0.7441
G1 X1.8178 Y-0.7294
G1 X1.8142 Y-0.7146
G1 X1.8097 Y-0.6999
G1 X1.8042 Y-0.6854
G1 X1.7979 Y-0.6711
G1 X1.7907 Y-0.6573
G1 X1.7827 Y-0.6439
G1 X1.7741 Y-0.631
G1 X1.7653 Y-0.6196
G1 X1.7562 Y-0.609
G1 X1.7468 Y-0.5994
G1 X1.7377 Y-0.5911
G1 X1.7277 Y-0.5829
G1 X1.7185 Y-0.5763
G1 X1.7082 Y-0.5698
G1 X1.6984 Y-0.5644
G1 X1.6886 Y-0.5597
G1 X1.6781 Y-0.5554
G1 X1.6633 Y-0.5516
G1 X1.6481 Y-0.5503
G1 X1.6328 Y-0.5514
G1 X1.618 Y-0.5549
G1 X1.6039 Y-0.5607
G1 X1.5909 Y-0.5688
G1 X1.5793 Y-0.5787
G1 X1.5695 Y-0.5904
G1 X1.5643 Y-0.5978
G1 X1.5577 Y-0.606
G1 X1.5427 Y-0.6236
G1 X1.533 Y-0.6349
G3 X1.5032 Y-0.6854 Z-0.488 I0.153 J-0.1239
G3 X1.4891 Y-0.7536 Z-0.4856 I0.1827 J-0.0733 F100.
G3 X1.5171 Y-0.8549 Z-0.482 I0.1806 J-0.0048
G3 X1.5532 Y-0.8964 I0.1526 J0.0966
G3 X1.7191 Y-0.932 Z-0.488 I0.1164 J0.1381
G3 X1.7722 Y-0.9071 Z-0.49 I-0.0495 J0.1737 F38.197
G1 X1.7826 Y-0.8993
G1 X1.8069 Y-0.8826
G1 X1.8126 Y-0.8793
G1 X1.814 Y-0.8786
G1 X1.8193 Y-0.8758
G1 X1.8241 Y-0.8723
G1 X1.8287 Y-0.8684
G1 X1.8331 Y-0.8643
G1 X1.8376 Y-0.8594
G1 X1.8421 Y-0.8541
G1 X1.8465 Y-0.848
G1 X1.851 Y-0.8411
G1 X1.8552 Y-0.8336
G1 X1.8593 Y-0.8253
G1 X1.8632 Y-0.8161
G1 X1.8666 Y-0.8063
G1 X1.8697 Y-0.7957
G1 X1.8723 Y-0.7842
G1 X1.8743 Y-0.7721
G1 X1.8756 Y-0.7594
G1 X1.8762 Y-0.7461
G1 X1.876 Y-0.732
G1 X1.8749 Y-0.7174
G1 X1.8729 Y-0.7025
G1 X1.87 Y-0.6875
G1 X1.8662 Y-0.6723
G1 X1.8613 Y-0.6571
G1 X1.8555 Y-0.642
G1 X1.8488 Y-0.6273
G1 X1.8413 Y-0.6129
G1 X1.8329 Y-0.5991
G1 X1.8238 Y-0.5858
G1 X1.8139 Y-0.5732
G1 X1.8035 Y-0.5613
G1 X1.7929 Y-0.5506
G1 X1.7824 Y-0.5412
G1 X1.7718 Y-0.5327
G1 X1.7616 Y-0.5255
G1 X1.7507 Y-0.5188
G1 X1.7407 Y-0.5133
G1 X1.7297 Y-0.5082
G1 X1.7196 Y-0.5042
G1 X1.718 Y-0.5036
G1 X1.7055 Y-0.5002
G1 X1.6928 Y-0.4982
G1 X1.68 Y-0.4975
G1 X1.6627
G1 X1.6477 Y-0.4976
G1 X1.6402 Y-0.4988
G1 X1.6327 Y-0.5012
G1 X1.6269 Y-0.504
G1 X1.6211 Y-0.5079
G1 X1.6177 Y-0.5107
G1 X1.6121 Y-0.5168
G1 X1.608 Y-0.5228
G1 X1.5833 Y-0.5678
G1 X1.5746 Y-0.5828
G1 X1.5727 Y-0.5859
G1 X1.5695 Y-0.5904
G3 X1.5475 Y-0.6446 Z-0.488 I0.1252 J-0.0826
G3 X1.5825 Y-0.7725 Z-0.4833 I0.1473 J-0.0284 F100.
G1 X1.6085 Y-0.8019 Z-0.482
G1 X1.6108 Y-0.8045
G1 X1.6426 Y-0.8403 Z-0.4836
G3 X1.7568 Y-0.8908 Z-0.488 I0.1122 J0.0995
G3 X1.814 Y-0.8786 Z-0.49 I-0.0019 J0.15 F38.197
G1 X1.8276 Y-0.8722
G1 X1.838 Y-0.8676
G1 X1.8545 Y-0.8607
G1 X1.8603 Y-0.858
G1 X1.8655 Y-0.8551
G1 X1.8706 Y-0.8519
G1 X1.8754 Y-0.8483
G1 X1.8803 Y-0.8441
G1 X1.8852 Y-0.8394
G1 X1.8901 Y-0.8342
G1 X1.8951 Y-0.828
G1 X1.9001 Y-0.8213
G1 X1.9048 Y-0.8139
G1 X1.9096 Y-0.8055
G1 X1.914 Y-0.7965
G1 X1.9181 Y-0.7867
G1 X1.9219 Y-0.7759
G1 X1.9252 Y-0.7644
G1 X1.9279 Y-0.7523
G1 X1.9299 Y-0.7394
G1 X1.9314 Y-0.7256
G1 X1.932 Y-0.7112
G1 X1.9317 Y-0.6964
G1 X1.9306 Y-0.6812
G1 X1.9285 Y-0.6655
G1 X1.9253 Y-0.6493
G1 X1.9211 Y-0.633
G1 X1.9159 Y-0.6166
G1 X1.9096 Y-0.6003
G1 X1.9023 Y-0.5843
G1 X1.894 Y-0.5687
G1 X1.8849 Y-0.5538
G1 X1.8821 Y-0.5496
G1 X1.8717 Y-0.5366
G1 X1.8596 Y-0.5251
G1 X1.846 Y-0.5154
G1 X1.8313 Y-0.5077
G1 X1.8156 Y-0.5021
G1 X1.7993 Y-0.4986
G1 X1.7827 Y-0.4975
G1 X1.68
G1 X1.6744 Y-0.4981 Z-0.4897
G1 X1.669 Y-0.4987 Z-0.489
G1 X1.6636 Y-0.4993 Z-0.4877
G1 X1.6584 Y-0.4998 Z-0.4858
G1 X1.6537 Y-0.501 Z-0.4837
G1 X1.6492 Y-0.5022 Z-0.4811
G1 X1.645 Y-0.5033 Z-0.478
G1 X1.641 Y-0.5043 Z-0.4746
G1 X1.6374 Y-0.5052 Z-0.4709
G1 X1.6341 Y-0.5065 Z-0.4667
G1 X1.6312 Y-0.5077 Z-0.4622
G1 X1.6288 Y-0.5086 Z-0.4574
G1 X1.6267 Y-0.5094 Z-0.4524
G1 X1.6251 Y-0.5101 Z-0.4473
G1 X1.6239 Y-0.5105 Z-0.442
G1 X1.6232 Y-0.5108 Z-0.4366
G1 X1.623 Y-0.5109 Z-0.4311
G0 Z0.2
G0 X1.6475 Y-0.8455
G0 Z-0.19
G1 Z-0.34 F38.197
G1 X1.6478 Y-0.8456 Z-0.3494
G1 X1.6487 Y-0.8457 Z-0.3588
G1 X1.6501 Y-0.8459 Z-0.3681
G1 X1.6522 Y-0.8462 Z-0.3773
G1 X1.6548 Y-0.8466 Z-0.3864
G1 X1.6579 Y-0.847 Z-0.3952
G1 X1.6616 Y-0.8476 Z-0.4039
G1 X1.6659 Y-0.8482 Z-0.4123
G1 X1.6706 Y-0.8489 Z-0.4204
G1 X1.6759 Y-0.8496 Z-0.4282
G1 X1.6816 Y-0.8505 Z-0.4356
G1 X1.6878 Y-0.8514 Z-0.4427
G1 X1.6943 Y-0.8523 Z-0.4493
G1 X1.7013 Y-0.8533 Z-0.4556
G1 X1.7087 Y-0.8544 Z-0.4614
G1 X1.7164 Y-0.8555 Z-0.4666
G1 X1.7245 Y-0.8567 Z-0.4714
G1 X1.7328 Y-0.8579 Z-0.4757
G1 X1.7413 Y-0.8591 Z-0.4795
G1 X1.7501 Y-0.8604 Z-0.4827
G1 X1.7591 Y-0.8617 Z-0.4853
G1 X1.7682 Y-0.863 Z-0.4873
G1 X1.7774 Y-0.8643 Z-0.4888
G1 X1.7866 Y-0.8657 Z-0.4897
G1 X1.796 Y-0.867 Z-0.49
G3 X1.8545 Y-0.8607 I0.017 J0.1175
G1 X1.8576 Y-0.8595
G1 X1.8726 Y-0.8534
G1 X1.8876 Y-0.8476
G1 X1.8995 Y-0.8443
G1 X1.9052 Y-0.8425
G1 X1.9107 Y-0.8401
G1 X1.916 Y-0.8372
G1 X1.9211 Y-0.8341
G1 X1.9261 Y-0.8305
G1 X1.9314 Y-0.8263
G1 X1.9369 Y-0.8214
G1 X1.9423 Y-0.816
G1 X1.9478 Y-0.8097
G1 X1.9533 Y-0.8026
G1 X1.9586 Y-0.7949
G1 X1.9638 Y-0.7863
G1 X1.9689 Y-0.7767
G1 X1.9735 Y-0.7666
G1 X1.9777 Y-0.7555
G1 X1.9816 Y-0.7434
G1 X1.9849 Y-0.7305
G1 X1.9875 Y-0.7171
G1 X1.9894 Y-0.7027
G1 X1.9905 Y-0.6874
G1 X1.9907 Y-0.6715
G1 X1.99 Y-0.6552
G1 X1.9882 Y-0.6384
G1 X1.9854 Y-0.6212
G1 X1.9819 Y-0.6055
G1 X1.9774 Y-0.59
G1 X1.9725 Y-0.5761
G1 X1.9668 Y-0.5626
G1 X1.9574 Y-0.5467
G1 X1.9455 Y-0.5325
G1 X1.9315 Y-0.5203
G1 X1.9158 Y-0.5105
G1 X1.8987 Y-0.5034
G1 X1.8807 Y-0.499
G1 X1.8622 Y-0.4975
G1 X1.7827
G3 X1.7284 Y-0.5176 Z-0.488 I0.0032 J-0.092
G3 X1.7208 Y-0.5244 Z-0.4877 I0.0575 J-0.0719 F100.
G3 X1.6658 Y-0.6759 Z-0.482 I0.1346 J-0.1347
G3 X1.6949 Y-0.7614 I0.1897 J0.0168
G3 X1.8411 Y-0.849 Z-0.488 I0.1606 J0.1024
G3 X1.8995 Y-0.8443 Z-0.49 I0.0144 J0.1899 F38.197
G1 X1.9026 Y-0.8435
G1 X1.9175 Y-0.8403
G1 X1.9325 Y-0.8377
G1 X1.9376 Y-0.837
G1 X1.9435 Y-0.8359
G1 X1.9493 Y-0.8345
G1 X1.955 Y-0.8326
G1 X1.9606 Y-0.8303
G1 X1.9659 Y-0.8276
G1 X1.9714 Y-0.8245
G1 X1.9772 Y-0.8207
G1 X1.9831 Y-0.8163
G1 X1.9891 Y-0.8113
G1 X1.9954 Y-0.8054
G1 X2.0015 Y-0.7989
G1 X2.0076 Y-0.7916
G1 X2.0138 Y-0.7833
G1 X2.0197 Y-0.7743
G1 X2.0254 Y-0.7645
G1 X2.0308 Y-0.7535
G1 X2.0359 Y-0.7417
G1 X2.0404 Y-0.7292
G1 X2.0444 Y-0.7156
G1 X2.0477 Y-0.7012
G1 X2.0503 Y-0.6861
G1 X2.052 Y-0.6705
G1 X2.0528 Y-0.6545
G1 X2.0526 Y-0.6394
G1 X2.0516 Y-0.6248
G1 X2.0498 Y-0.6106
G1 X2.0474 Y-0.5978
G1 X2.0441 Y-0.5843
G1 X2.0405 Y-0.5728
G1 X2.0401 Y-0.5718
G1 X2.0327 Y-0.5561
G1 X2.0231 Y-0.5416
G1 X2.0114 Y-0.5288
G1 X1.9979 Y-0.5179
G1 X1.9829 Y-0.5091
G1 X1.9668 Y-0.5027
G1 X1.9498 Y-0.4988
G1 X1.9325 Y-0.4975
G1 X1.8622
G3 X1.814 Y-0.5143 Z-0.4882 I0.003 J-0.0863
G1 X1.8084 Y-0.5186 Z-0.488
G3 X1.7411 Y-0.6586 Z-0.4825 I0.1119 J-0.14 F100.
G3 X1.7418 Y-0.6745 Z-0.482 I0.1793 J0.
G3 X1.7522 Y-0.7207 I0.1785 J0.0159
G3 X1.8791 Y-0.8331 Z-0.488 I0.1682 J0.0621
G3 X1.9376 Y-0.837 Z-0.49 I0.0412 J0.1745 F38.197
G1 X1.9475 Y-0.8357
G1 X1.9625 Y-0.8338
G1 X1.9775 Y-0.8321
G1 X1.9858 Y-0.8315
G1 X1.9917 Y-0.8308
G1 X1.9976 Y-0.8297
G1 X2.0034 Y-0.8281
G1 X2.0091 Y-0.8262
G1 X2.0149 Y-0.8237
G1 X2.0209 Y-0.8208
G1 X2.0271 Y-0.8173
G1 X2.0337 Y-0.813
G1 X2.0403 Y-0.8082
G1 X2.047 Y-0.8026
G1 X2.054 Y-0.7961
G1 X2.0609 Y-0.7889
G1 X2.0677 Y-0.7809
G1 X2.0746 Y-0.7717
G1 X2.0811 Y-0.7619
G1 X2.0873 Y-0.7512
G1 X2.0932 Y-0.7396
G1 X2.0986 Y-0.727
G1 X2.1034 Y-0.7138
G1 X2.1075 Y-0.7001
G1 X2.1109 Y-0.6859
G1 X2.1135 Y-0.6712
G1 X2.1151 Y-0.6569
G1 X2.1159 Y-0.6432
G1 X2.1158 Y-0.6294
G1 X2.115 Y-0.6169
G1 X2.1134 Y-0.6037
G1 X2.1113 Y-0.5921
G1 X2.1083 Y-0.5798
G1 X2.1049 Y-0.5687
G1 X2.1031 Y-0.5639
G1 X2.0967 Y-0.5499
G1 X2.0881 Y-0.537
G1 X2.0777 Y-0.5255
G1 X2.0657 Y-0.5157
G1 X2.0524 Y-0.5079
G1 X2.038 Y-0.5022
G1 X2.0229 Y-0.4987
G1 X2.0075 Y-0.4975
G1 X1.9325
G3 X1.8934 Y-0.5088 Z-0.4886 I0.0029 J-0.0838
G3 X1.8785 Y-0.5184 Z-0.488 I0.0868 J-0.1498
G3 X1.8076 Y-0.6719 Z-0.482 I0.1017 J-0.1401 F100.
G3 X1.8122 Y-0.7001 I0.1726 J0.0134
G3 X1.9277 Y-0.8235 Z-0.488 I0.168 J0.0415
G3 X1.9858 Y-0.8315 Z-0.49 I0.0525 J0.165 F38.197
G1 X1.9925 Y-0.8311
G1 X2.0075
G1 X2.0225 Y-0.8321
G1 X2.025 Y-0.8324
G1 X2.031 Y-0.8328
G1 X2.037 Y-0.8326
G1 X2.0429 Y-0.8319
G1 X2.0488 Y-0.8308
G1 X2.0546 Y-0.8294
G1 X2.0606 Y-0.8275
G1 X2.0672 Y-0.825
G1 X2.0739 Y-0.8219
G1 X2.0808 Y-0.8183
G1 X2.0881 Y-0.8139
G1 X2.0956 Y-0.8088
G1 X2.103 Y-0.803
G1 X2.1107 Y-0.7963
G1 X2.1184 Y-0.7887
G1 X2.1258 Y-0.7805
G1 X2.1332 Y-0.7713
G1 X2.1404 Y-0.7612
G1 X2.1472 Y-0.7502
G1 X2.1535 Y-0.7386
G1 X2.1593 Y-0.7263
G1 X2.1644 Y-0.7135
G1 X2.1689 Y-0.7
G1 X2.1727 Y-0.6862
G1 X2.1756 Y-0.6718
G1 X2.1778 Y-0.6573
G1 X2.1789 Y-0.6436
G1 X2.1793 Y-0.6293
G1 X2.179 Y-0.6167
G1 X2.1778 Y-0.6036
G1 X2.176 Y-0.5918
G1 X2.1735 Y-0.58
G1 X2.1704 Y-0.5687
G1 X2.164 Y-0.5537
G1 X2.1554 Y-0.5399
G1 X2.1447 Y-0.5276
G1 X2.1323 Y-0.5171
G1 X2.1184 Y-0.5087
G1 X2.1033 Y-0.5025
G1 X2.0875 Y-0.4988
G1 X2.0712 Y-0.4975
G1 X2.0075
G3 X1.9731 Y-0.5063 Z-0.4888 I0.0029 J-0.0828
G3 X1.9532 Y-0.518 Z-0.488 I0.078 J-0.1548
G3 X1.878 Y-0.6695 Z-0.482 I0.0979 J-0.143 F100.
G1 X1.8781 Y-0.6715
G3 X1.9694 Y-0.8139 Z-0.488 I0.173 J0.0105
G3 X2.025 Y-0.8324 Z-0.49 I0.0817 J0.1528 F38.197
G1 X2.0375 Y-0.8338
G1 X2.0525 Y-0.8357
G1 X2.0675 Y-0.8377
G1 X2.07 Y-0.8381
G1 X2.0759 Y-0.8388
G1 X2.0819 Y-0.8392
G1 X2.0879 Y-0.839
G1 X2.0939 Y-0.8384
G1 X2.0999 Y-0.8375
G1 X2.1061 Y-0.8361
G1 X2.113 Y-0.8341
G1 X2.12 Y-0.8317
G1 X2.1273 Y-0.8286
G1 X2.1351 Y-0.8248
G1 X2.143 Y-0.8204
G1 X2.1509 Y-0.8153
G1 X2.1591 Y-0.8093
G1 X2.1674 Y-0.8025
G1 X2.1756 Y-0.7949
G1 X2.1836 Y-0.7865
G1 X2.1917 Y-0.7771
G1 X2.1995 Y-0.7667
G1 X2.2068 Y-0.7557
G1 X2.2137 Y-0.744
G1 X2.22 Y-0.7314
G1 X2.2258 Y-0.7183
G1 X2.2308 Y-0.7045
G1 X2.2351 Y-0.6903
G1 X2.2385 Y-0.6758
G1 X2.2412 Y-0.6611
G1 X2.2427 Y-0.6479
G1 X2.2435 Y-0.6339
G1 Y-0.6216
G1 X2.2427 Y-0.6087
G1 X2.2413 Y-0.597
G1 X2.2392 Y-0.5853
G1 X2.2364 Y-0.5739
G1 X2.2333 Y-0.5636
G1 X2.2258 Y-0.5477
G1 X2.2157 Y-0.5334
G1 X2.2032 Y-0.521
G1 X2.1888 Y-0.5109
G1 X2.1728 Y-0.5036
G1 X2.1559 Y-0.499
G1 X2.1383 Y-0.4975
G1 X2.0712
G3 X2.0143 Y-0.5109 Z-0.488 I0.0052 J-0.1499
G3 X1.9265 Y-0.6525 Z-0.482 I0.0622 J-0.1365 F100.
G3 X1.9277 Y-0.6667 I0.1499 J0.0051
G3 X1.9449 Y-0.7195 Z-0.4839 I0.1487 J0.0193
G1 X1.9689 Y-0.7633 Z-0.4856
G3 X2.0161 Y-0.8153 Z-0.488 I0.1316 J0.0721
G3 X2.07 Y-0.8381 Z-0.49 I0.0844 J0.124 F38.197
G1 X2.0825 Y-0.8403
G1 X2.0974 Y-0.8435
G1 X2.1124 Y-0.8476
G1 X2.1182 Y-0.8492
G1 X2.1242 Y-0.8502
G1 X2.1301 Y-0.8506
G1 X2.1361 Y-0.8507
G1 X2.1421 Y-0.8504
G1 X2.1486 Y-0.8497
G1 X2.1555 Y-0.8484
G1 X2.1625 Y-0.8468
G1 X2.1702 Y-0.8445
G1 X2.1782 Y-0.8416
G1 X2.1863 Y-0.8381
G1 X2.1948 Y-0.8338
G1 X2.2036 Y-0.8287
G1 X2.2124 Y-0.8229
G1 X2.2212 Y-0.8163
G1 X2.2302 Y-0.8087
G1 X2.2392 Y-0.8001
G1 X2.2478 Y-0.7908
G1 X2.2563 Y-0.7807
G1 X2.2644 Y-0.7695
G1 X2.2722 Y-0.7576
G1 X2.2794 Y-0.7448
G1 X2.2859 Y-0.7316
G1 X2.2917 Y-0.7177
G1 X2.2967 Y-0.7035
G1 X2.3009 Y-0.6889
G1 X2.3042 Y-0.6741
G1 X2.3067 Y-0.6591
G1 X2.3081 Y-0.6453
G1 X2.3087 Y-0.6315
G1 X2.3085 Y-0.6183
G1 X2.3076 Y-0.6063
G1 X2.3059 Y-0.5935
G1 X2.3038 Y-0.5824
G1 X2.3009 Y-0.571
G1 X2.3002 Y-0.569
G1 X2.2941 Y-0.554
G1 X2.2857 Y-0.5401
G1 X2.2752 Y-0.5278
G1 X2.263 Y-0.5173
G1 X2.2492 Y-0.5088
G1 X2.2343 Y-0.5026
G1 X2.2185 Y-0.4988
G1 X2.2024 Y-0.4975
G1 X2.1383
G3 X2.0814 Y-0.5109 Z-0.488 I0.0052 J-0.1499
G3 X1.9937 Y-0.6525 Z-0.482 I0.0622 J-0.1365 F100.
G1 X1.9938 Y-0.6552
G3 X2.0066 Y-0.7084 Z-0.4839 I0.1498 J0.0078
G1 X2.0343 Y-0.7707 Z-0.4862
G3 X2.0641 Y-0.8146 Z-0.488 I0.137 J0.061
G3 X2.1124 Y-0.8476 Z-0.49 I0.1072 J0.105 F38.197
G1 X2.1274 Y-0.8534
G1 X2.1424 Y-0.8595
G1 X2.1507 Y-0.8629
G1 X2.1563 Y-0.8649
G1 X2.1621 Y-0.8665
G1 X2.168 Y-0.8677
G1 X2.1739 Y-0.8685
G1 X2.1799 Y-0.8688
G1 X2.1865
G1 X2.1933 Y-0.8684
G1 X2.2006 Y-0.8676
G1 X2.2085 Y-0.8662
G1 X2.2167 Y-0.8643
G1 X2.2251 Y-0.8617
G1 X2.2341 Y-0.8584
G1 X2.2434 Y-0.8544
G1 X2.2526 Y-0.8497
G1 X2.2623 Y-0.8441
G1 X2.2722 Y-0.8375
G1 X2.282 Y-0.8301
G1 X2.2916 Y-0.8219
G1 X2.3013 Y-0.8127
G1 X2.3108 Y-0.8024
G1 X2.32 Y-0.7912
G1 X2.3287 Y-0.7793
G1 X2.337 Y-0.7665
G1 X2.3446 Y-0.753
G1 X2.3515 Y-0.7389
G1 X2.3576 Y-0.7241
G1 X2.3629 Y-0.7091
G1 X2.3673 Y-0.6936
G1 X2.3707 Y-0.6781
G1 X2.3732 Y-0.6625
G1 X2.3747 Y-0.6484
G1 X2.3753 Y-0.6338
G1 X2.3751 Y-0.621
G1 X2.374 Y-0.6075
G1 X2.3724 Y-0.5957
G1 X2.37 Y-0.5834
G1 X2.3671 Y-0.5721
G1 X2.3607 Y-0.5565
G1 X2.3519 Y-0.542
G1 X2.3409 Y-0.5292
G1 X2.328 Y-0.5181
G1 X2.3136 Y-0.5093
G1 X2.298 Y-0.5028
G1 X2.2815 Y-0.4988
G1 X2.2647 Y-0.4975
G1 X2.2024
G3 X2.1455 Y-0.5109 Z-0.488 I0.0052 J-0.1499
G3 X2.0577 Y-0.6525 Z-0.482 I0.0622 J-0.1365 F100.
G1 X2.058 Y-0.6573
G1 X2.0583 Y-0.6625
G1 X2.0632 Y-0.7363 Z-0.4845
G3 X2.1032 Y-0.8287 Z-0.488 I0.1497 J0.0099
G3 X2.1507 Y-0.8629 Z-0.49 I0.1097 J0.1023 F38.197
G1 X2.162 Y-0.8676
G1 X2.1724 Y-0.8722
G1 X2.1874 Y-0.8793
G1 X2.1906 Y-0.8811
G1 X2.1959 Y-0.8838
G1 X2.2015 Y-0.886
G1 X2.2072 Y-0.8878
G1 X2.213 Y-0.8892
G1 X2.219 Y-0.8901
G1 X2.2253 Y-0.8908
G1 X2.2323 Y-0.8911
G1 X2.2395 Y-0.891
G1 X2.2474 Y-0.8905
G1 X2.2558 Y-0.8894
G1 X2.2644 Y-0.8877
G1 X2.2736 Y-0.8854
G1 X2.2833 Y-0.8823
G1 X2.2931 Y-0.8785
G1 X2.3032 Y-0.8739
G1 X2.3137 Y-0.8684
G1 X2.3244 Y-0.8619
G1 X2.335 Y-0.8547
G1 X2.3456 Y-0.8464
G1 X2.3562 Y-0.8371
G1 X2.3668 Y-0.8267
G1 X2.377 Y-0.8153
G1 X2.3867 Y-0.8031
G1 X2.396 Y-0.7901
G1 X2.4047 Y-0.776
G1 X2.4127 Y-0.7613
G1 X2.4199 Y-0.7459
G1 X2.4262 Y-0.7302
G1 X2.4316 Y-0.714
G1 X2.4359 Y-0.6976
G1 X2.4393 Y-0.6811
G1 X2.4417 Y-0.665
G1 X2.4429 Y-0.6504
G1 X2.443 Y-0.6489
G1 X2.4422 Y-0.6317
G1 X2.439 Y-0.6147
G1 X2.4334 Y-0.5984
G1 X2.4256 Y-0.5831
G1 X2.4167 Y-0.5678
G1 X2.392 Y-0.5228
G1 X2.3879 Y-0.5168
G1 X2.3823 Y-0.5107
G1 X2.3789 Y-0.5079
G1 X2.3731 Y-0.504
G1 X2.3673 Y-0.5012
G1 X2.3598 Y-0.4988
G1 X2.3523 Y-0.4976
G1 X2.3373 Y-0.4975
G1 X2.2647
G3 X2.2077 Y-0.5109 Z-0.488 I0.0052 J-0.1499
G3 X2.1199 Y-0.6472 Z-0.4822 I0.0622 J-0.1365 F100.
G1 Y-0.6525 Z-0.482
G1 Y-0.6704
G1 X2.1198 Y-0.7535 Z-0.4848
G3 X2.1479 Y-0.8411 Z-0.488 I0.15 J-0.0002
G3 X2.1906 Y-0.8811 Z-0.49 I0.1219 J0.0874 F38.197
G1 X2.1931 Y-0.8826
G1 X2.2174 Y-0.8993
G1 X2.2219 Y-0.9027
G1 X2.2271 Y-0.9061
G1 X2.2323 Y-0.9091
G1 X2.2377 Y-0.9117
G1 X2.2433 Y-0.9139
G1 X2.249 Y-0.9157
G1 X2.255 Y-0.9172
G1 X2.2616 Y-0.9185
G1 X2.2688 Y-0.9194
G1 X2.2765 Y-0.9199
G1 X2.2846 Y-0.92
G1 X2.2935 Y-0.9195
G1 X2.3027 Y-0.9185
G1 X2.3123 Y-0.9169
G1 X2.3225 Y-0.9146
G1 X2.3332 Y-0.9114
G1 X2.344 Y-0.9076
G1 X2.3553 Y-0.9028
G1 X2.3669 Y-0.897
G1 X2.3787 Y-0.8903
G1 X2.3903 Y-0.8826
G1 X2.4021 Y-0.8739
G1 X2.414 Y-0.864
G1 X2.4257 Y-0.8529
G1 X2.437 Y-0.841
G1 X2.4478 Y-0.8281
G1 X2.4581 Y-0.8141
G1 X2.4679 Y-0.7992
G1 X2.4769 Y-0.7834
G1 X2.485 Y-0.7672
G1 X2.4913 Y-0.7522
G1 X2.496 Y-0.7355
G1 X2.498 Y-0.7182
G1 X2.4974 Y-0.7009
G1 X2.4942 Y-0.6838
G1 X2.4884 Y-0.6674
G1 X2.4803 Y-0.652
G1 X2.4699 Y-0.6381
G1 X2.4573 Y-0.6236
G1 X2.4423 Y-0.606
G1 X2.4357 Y-0.5978
G1 X2.4273 Y-0.5859
G1 X2.4256 Y-0.5831
G3 X2.3808 Y-0.5463 Z-0.488 I-0.0809 J-0.0529
G3 X2.3407 Y-0.5394 Z-0.4866 I-0.0361 J-0.0897 F100.
G3 X2.2167 Y-0.5881 Z-0.482 I0.0083 J-0.2038
G3 X2.1518 Y-0.6914 I0.1324 J-0.1552
G3 X2.1818 Y-0.8599 Z-0.488 I0.1972 J-0.0518
G3 X2.2219 Y-0.9027 Z-0.49 I0.1673 J0.1167 F38.197
G1 X2.2324 Y-0.9104
G1 X2.2546 Y-0.9275
G1 X2.2589 Y-0.9311
G1 X2.2638 Y-0.9349
G1 X2.2688 Y-0.9382
G1 X2.274 Y-0.9412
G1 X2.2795 Y-0.9438
G1 X2.2851 Y-0.946
G1 X2.2913 Y-0.948
G1 X2.2979 Y-0.9498
G1 X2.3054 Y-0.9513
G1 X2.3132 Y-0.9524
G1 X2.3216 Y-0.9531
G1 X2.3308 Y-0.9533
G1 X2.3404 Y-0.953
G1 X2.3505 Y-0.9521
G1 X2.3613 Y-0.9504
G1 X2.3726 Y-0.948
G1 X2.3841 Y-0.9448
G1 X2.3962 Y-0.9406
G1 X2.4088 Y-0.9355
G1 X2.4214 Y-0.9294
G1 X2.4342 Y-0.9224
G1 X2.4472 Y-0.9141
G1 X2.4605 Y-0.9046
G1 X2.4735 Y-0.894
G1 X2.4862 Y-0.8823
G1 X2.4975 Y-0.8707
G1 X2.5079 Y-0.8587
G1 X2.5167 Y-0.8471
G1 X2.5247 Y-0.8352
G1 X2.5317 Y-0.8234
G1 X2.5376 Y-0.8119
G1 X2.543 Y-0.7998
G1 X2.5474 Y-0.7846
G1 X2.5496 Y-0.7689
G1 X2.5493 Y-0.753
G1 X2.5467 Y-0.7374
G1 X2.5418 Y-0.7223
G1 X2.5347 Y-0.7082
G1 X2.5256 Y-0.6952
G1 X2.5146 Y-0.6838
G1 X2.5022 Y-0.6727
G1 X2.494 Y-0.6646
G1 X2.4904 Y-0.6615 Z-0.4898
G3 X2.4439 Y-0.6342 Z-0.488 I-0.1122 J-0.1378
G3 X2.2756 Y-0.6541 Z-0.482 I-0.0658 J-0.1651 F100.
G3 X2.2213 Y-0.7157 I0.1025 J-0.1452
G3 X2.2225 Y-0.8852 Z-0.488 I0.1568 J-0.0836
G3 X2.2589 Y-0.9311 Z-0.49 I0.1556 J0.0858 F38.197
G1 X2.2624 Y-0.9341
G1 X2.2714 Y-0.9425
G1 X2.2867 Y-0.9575
G1 X2.2923 Y-0.9632
G1 X2.2968 Y-0.9672
G1 X2.3015 Y-0.9709
G1 X2.3065 Y-0.9742
G1 X2.3117 Y-0.9772
G1 X2.3174 Y-0.9799
G1 X2.3234 Y-0.9825
G1 X2.3303 Y-0.9849
G1 X2.3377 Y-0.987
G1 X2.3457 Y-0.9888
G1 X2.3545 Y-0.9903
G1 X2.3638 Y-0.9912
G1 X2.3737 Y-0.9917
G1 X2.3844 Y-0.9915
G1 X2.3956 Y-0.9907
G1 X2.4072 Y-0.9892
G1 X2.4196 Y-0.9868
G1 X2.4326 Y-0.9835
G1 X2.4458 Y-0.9793
G1 X2.4592 Y-0.9741
G1 X2.4728 Y-0.9679
G1 X2.4865 Y-0.9607
G1 X2.4999 Y-0.9526
G1 X2.5131 Y-0.9435
G1 X2.5258 Y-0.9336
G1 X2.538 Y-0.9229
G1 X2.5484 Y-0.9126
G1 X2.5584 Y-0.9015
G1 X2.5666 Y-0.8912
G1 X2.5745 Y-0.88
G1 X2.5811 Y-0.8694
G1 X2.5871 Y-0.8583
G1 X2.5922 Y-0.8475
G1 X2.5965 Y-0.8367
G1 X2.5981 Y-0.8318
G1 X2.6018 Y-0.8166
G1 X2.6031 Y-0.8009
G1 X2.602 Y-0.7853
G1 X2.5984 Y-0.77
G1 X2.5924 Y-0.7555
G1 X2.5843 Y-0.7421
G1 X2.5741 Y-0.7302
G1 X2.5622 Y-0.72
G1 X2.519 Y-0.6877
G1 X2.5146 Y-0.6838
G3 X2.4885 Y-0.6686 Z-0.489 I-0.0569 J-0.0679
G3 X2.4611 Y-0.6608 Z-0.488 I-0.0631 J-0.1705
G3 X2.2983 Y-0.709 Z-0.482 I-0.0357 J-0.1783 F100.
G3 X2.2698 Y-0.7449 I0.1271 J-0.1301
G3 X2.2598 Y-0.9144 Z-0.488 I0.1555 J-0.0942
G3 X2.2923 Y-0.9632 Z-0.49 I0.1655 J0.0753 F38.197
G1 X2.3316 Y-1.0025
G1 X2.3361 Y-1.0065
G1 X2.3408 Y-1.0102
G1 X2.3458 Y-1.0135
G1 X2.3513 Y-1.0167
G1 X2.3571 Y-1.0197
G1 X2.3639 Y-1.0227
G1 X2.3712 Y-1.0254
G1 X2.3791 Y-1.0278
G1 X2.3879 Y-1.0299
G1 X2.3972 Y-1.0316
G1 X2.4071 Y-1.0328
G1 X2.4179 Y-1.0334
G1 X2.4293
G1 X2.4411 Y-1.0327
G1 X2.4536 Y-1.0313
G1 X2.4668 Y-1.0289
G1 X2.4802 Y-1.0257
G1 X2.4938 Y-1.0216
G1 X2.5076 Y-1.0165
G1 X2.5215 Y-1.0105
G1 X2.5353 Y-1.0035
G1 X2.5489 Y-0.9955
G1 X2.562 Y-0.9868
G1 X2.5747 Y-0.9772
G1 X2.5867 Y-0.9669
G1 X2.5982 Y-0.956
G1 X2.6082 Y-0.9452
G1 X2.6178 Y-0.9335
G1 X2.6256 Y-0.9228
G1 X2.6329 Y-0.9113
G1 X2.6391 Y-0.9005
G1 X2.6444 Y-0.8895
G1 X2.649 Y-0.8783
G1 X2.6527 Y-0.8679
G1 X2.6559 Y-0.8565
G1 X2.6582 Y-0.8462
G1 X2.6583 Y-0.8454
G1 X2.6595 Y-0.8307
G1 X2.6583 Y-0.816
G1 X2.6547 Y-0.8017
G1 X2.6489 Y-0.7882
G1 X2.6411 Y-0.7758
G1 X2.6313 Y-0.7648
G1 X2.6199 Y-0.7554
G1 X2.6072 Y-0.7481
G1 X2.5922 Y-0.7398
G3 X2.5365 Y-0.7213 Z-0.488 I-0.0892 J-0.1755
G3 X2.3723 Y-0.768 Z-0.482 I-0.0336 J-0.194 F100.
G3 X2.3555 Y-0.7848 I0.1307 J-0.1472
G3 X2.309 Y-0.9491 Z-0.488 I0.1474 J-0.1305
G3 X2.315 Y-0.9739 Z-0.4889 I0.1939 J0.0338 F38.197
G3 X2.3316 Y-1.0025 Z-0.49 I0.071 J0.0222
G1 X2.3724 Y-1.0432
G1 X2.3775 Y-1.0479
G1 X2.3822 Y-1.0516
G1 X2.3872 Y-1.0551
G1 X2.3926 Y-1.0584
G1 X2.3987 Y-1.0617
G1 X2.4056 Y-1.0649
G1 X2.413 Y-1.0678
G1 X2.4212 Y-1.0705
G1 X2.4302 Y-1.0728
G1 X2.4396 Y-1.0747
G1 X2.4499 Y-1.0762
G1 X2.461 Y-1.0771
G1 X2.4725 Y-1.0773
G1 X2.4846 Y-1.0769
G1 X2.4975 Y-1.0756
G1 X2.5109 Y-1.0735
G1 X2.5244 Y-1.0706
G1 X2.5383 Y-1.0667
G1 X2.5526 Y-1.0618
G1 X2.5669 Y-1.0559
G1 X2.5813 Y-1.049
G1 X2.5953 Y-1.0411
G1 X2.609 Y-1.0324
G1 X2.6223 Y-1.0229
G1 X2.6349 Y-1.0126
G1 X2.6469 Y-1.0015
G1 X2.6581 Y-0.9899
G1 X2.6685 Y-0.9777
G1 X2.6782 Y-0.9651
G1 X2.6861 Y-0.9533
G1 X2.6934 Y-0.9408
G1 X2.6992 Y-0.9295
G1 X2.7045 Y-0.9176
G1 X2.7086 Y-0.9064
G1 X2.7121 Y-0.8952
G1 X2.7148 Y-0.884
G1 X2.7167 Y-0.8736
G1 X2.7173 Y-0.8581
G1 X2.7155 Y-0.8426
G1 X2.7113 Y-0.8277
G1 X2.7048 Y-0.8136
G1 X2.6961 Y-0.8007
G1 X2.6855 Y-0.7893
G1 X2.6733 Y-0.7798
G1 X2.6597 Y-0.7723
G1 X2.6372 Y-0.7621
G1 X2.6222 Y-0.7552
G1 X2.6072 Y-0.7481
G3 X2.5505 Y-0.733 Z-0.488 I-0.0784 J-0.1806
G3 X2.3894 Y-0.7897 Z-0.482 I-0.0217 J-0.1957 F100.
G3 X2.3625 Y-0.8233 I0.1394 J-0.139
G3 X2.3427 Y-0.9929 Z-0.488 I0.1663 J-0.1053
G1 X2.3458 Y-1.0011 Z-0.4883 F38.197
G3 X2.3724 Y-1.0432 Z-0.49 I0.1248 J0.0494
G1 X2.4174 Y-1.0882
G1 X2.4218 Y-1.0922
G1 X2.4265 Y-1.096
G1 X2.4316 Y-1.0995
G1 X2.4374 Y-1.1031
G1 X2.4437 Y-1.1064
G1 X2.4508 Y-1.1097
G1 X2.4586 Y-1.1127
G1 X2.4669 Y-1.1154
G1 X2.4763 Y-1.1179
G1 X2.4862 Y-1.1198
G1 X2.4967 Y-1.1213
G1 X2.5082 Y-1.1222
G1 X2.5202 Y-1.1224
G1 X2.5327 Y-1.122
G1 X2.5459 Y-1.1207
G1 X2.5597 Y-1.1185
G1 X2.574 Y-1.1153
G1 X2.5883 Y-1.1113
G1 X2.6029 Y-1.1062
G1 X2.6177 Y-1.1001
G1 X2.6326 Y-1.0929
G1 X2.6474 Y-1.0846
G1 X2.6619 Y-1.0753
G1 X2.6759 Y-1.0652
G1 X2.6892 Y-1.0542
G1 X2.7019 Y-1.0425
G1 X2.7138 Y-1.0302
G1 X2.7247 Y-1.0174
G1 X2.7348 Y-1.004
G1 X2.7439 Y-0.9905
G1 X2.7512 Y-0.9781
G1 X2.7579 Y-0.9649
G1 X2.763 Y-0.9532
G1 X2.7677 Y-0.9405
G1 X2.7712 Y-0.9292
G1 X2.7741 Y-0.9171
G1 X2.7761 Y-0.9058
G1 X2.7774 Y-0.8946
G1 X2.7781 Y-0.8832
G1 X2.7768 Y-0.867
G1 X2.7727 Y-0.8513
G1 X2.7662 Y-0.8364
G1 X2.7572 Y-0.8228
G1 X2.7461 Y-0.811
G1 X2.7332 Y-0.8011
G1 X2.7189 Y-0.7935
G1 X2.7035 Y-0.7884
G3 X2.645 Y-0.7829 Z-0.488 I-0.0551 J-0.27
G3 X2.4809 Y-0.8396 Z-0.482 I0.0034 J-0.2756 F100.
G3 X2.4413 Y-0.8767 I0.1675 J-0.2188
G3 X2.3927 Y-0.9557 Z-0.4852 I0.2071 J-0.1818
G3 X2.3886 Y-1.0375 Z-0.488 I0.1166 J-0.0469
G3 X2.4174 Y-1.0882 Z-0.49 I0.1207 J0.035 F38.197
G1 X2.4624 Y-1.1332
G1 X2.4668 Y-1.1372
G1 X2.4715 Y-1.141
G1 X2.4767 Y-1.1446
G1 X2.4824 Y-1.1482
G1 X2.4889 Y-1.1517
G1 X2.4961 Y-1.1551
G1 X2.5039 Y-1.1581
G1 X2.5126 Y-1.161
G1 X2.522 Y-1.1635
G1 X2.5319 Y-1.1656
G1 X2.5429 Y-1.1671
G1 X2.5546 Y-1.1681
G1 X2.5667 Y-1.1684
G1 X2.5796 Y-1.168
G1 X2.5934 Y-1.1667
G1 X2.6076 Y-1.1645
G1 X2.622 Y-1.1614
G1 X2.637 Y-1.1573
G1 X2.6524 Y-1.152
G1 X2.668 Y-1.1457
G1 X2.6836 Y-1.1382
G1 X2.699 Y-1.1297
G1 X2.7142 Y-1.1201
G1 X2.729 Y-1.1095
G1 X2.7432 Y-1.098
G1 X2.7567 Y-1.0856
G1 X2.7694 Y-1.0726
G1 X2.7812 Y-1.0589
G1 X2.792 Y-1.0448
G1 X2.8018 Y-1.0304
G1 X2.8105 Y-1.0156
G1 X2.8183 Y-1.0006
G1 X2.8243 Y-0.987
G1 X2.8297 Y-0.9727
G1 X2.8336 Y-0.96
G1 X2.8369 Y-0.9469
G1 X2.8392 Y-0.9345
G1 X2.8406 Y-0.9227
G1 X2.8414 Y-0.9104
G1 X2.8415 Y-0.8995
G1 X2.8414 Y-0.8978
G1 X2.8391 Y-0.8806
G1 X2.8339 Y-0.8641
G1 X2.8262 Y-0.8486
G1 X2.8159 Y-0.8346
G1 X2.8036 Y-0.8225
G1 X2.7894 Y-0.8126
G1 X2.7737 Y-0.8052
G1 X2.7571 Y-0.8004
G1 X2.7271 Y-0.7938
G1 X2.7121 Y-0.7905
G1 X2.7035 Y-0.7884
G3 X2.6449 Y-0.7839 Z-0.488 I-0.0472 J-0.2315
G3 X2.4875 Y-0.8546 Z-0.482 I0.0114 J-0.2359 F100.
G3 X2.4459 Y-0.9125 I0.1688 J-0.1653
G3 X2.4209 Y-1.0394 Z-0.4865 I0.2104 J-0.1074
G3 X2.4312 Y-1.0837 Z-0.488 I0.1559 J0.013
G3 X2.4624 Y-1.1332 Z-0.49 I0.1456 J0.0572 F38.197
G1 X2.5073 Y-1.1781
G1 X2.513 Y-1.1833
G1 X2.5177 Y-1.187
G1 X2.523 Y-1.1908
G1 X2.5288 Y-1.1944
G1 X2.5354 Y-1.1979
G1 X2.5427 Y-1.2014
G1 X2.5506 Y-1.2045
G1 X2.5595 Y-1.2075
G1 X2.5691 Y-1.2101
G1 X2.5793 Y-1.2122
G1 X2.5907 Y-1.2138
G1 X2.6026 Y-1.2148
G1 X2.6151 Y-1.2151
G1 X2.6285 Y-1.2147
G1 X2.6428 Y-1.2134
G1 X2.6573 Y-1.2112
G1 X2.6723 Y-1.208
G1 X2.688 Y-1.2037
G1 X2.7041 Y-1.1982
G1 X2.7203 Y-1.1916
G1 X2.7365 Y-1.1839
G1 X2.7526 Y-1.175
G1 X2.7685 Y-1.165
G1 X2.7842 Y-1.1537
G1 X2.7994 Y-1.1414
G1 X2.8141 Y-1.1281
G1 X2.8278 Y-1.114
G1 X2.8407 Y-1.0991
G1 X2.8525 Y-1.0837
G1 X2.8632 Y-1.0679
G1 X2.8728 Y-1.0517
G1 X2.8813 Y-1.0355
G1 X2.8886 Y-1.0191
G1 X2.8943 Y-1.004
G1 X2.899 Y-0.9886
G1 X2.9025 Y-0.9745
G1 X2.9051 Y-0.9607
G1 X2.9068 Y-0.9471
G1 X2.9076 Y-0.9348
G1 X2.9077 Y-0.9216
G1 X2.9071 Y-0.91
G1 X2.9058 Y-0.8978
G1 X2.9038 Y-0.8864
G1 X2.8988 Y-0.8708
G1 X2.8913 Y-0.8561
G1 X2.8816 Y-0.8429
G1 X2.8699 Y-0.8314
G1 X2.8564 Y-0.8219
G1 X2.8416 Y-0.8148
G1 X2.8259 Y-0.8101
G1 X2.8096 Y-0.8081
G1 X2.7996 Y-0.8076
G1 X2.7871 Y-0.806
G1 X2.7721 Y-0.8034
G1 X2.7571 Y-0.8004
G3 X2.5849 Y-0.9242 Z-0.482 I-0.0241 J-0.148 F100.
G3 X2.7145 Y-1.0973 I0.148 J-0.0243
G1 X2.7128 Y-1.0988
G3 X2.5549 Y-0.9852 I-0.1187 J0.0016
G3 X2.5073 Y-1.1781 Z-0.49 I0.0393 J-0.112
G1 X2.5546 Y-1.2254 F38.197
G1 X2.5597 Y-1.2301
G1 X2.5644 Y-1.2338
G1 X2.5698 Y-1.2377
G1 X2.5757 Y-1.2413
G1 X2.5825 Y-1.245
G1 X2.5899 Y-1.2485
G1 X2.598 Y-1.2517
G1 X2.6072 Y-1.2548
G1 X2.6168 Y-1.2574
G1 X2.6274 Y-1.2596
G1 X2.6391 Y-1.2613
G1 X2.6511 Y-1.2624
G1 X2.6641 Y-1.2627
G1 X2.6781 Y-1.2623
G1 X2.6926 Y-1.261
G1 X2.7075 Y-1.2588
G1 X2.7233 Y-1.2554
G1 X2.7397 Y-1.2509
G1 X2.7564 Y-1.2453
G1 X2.7732 Y-1.2385
G1 X2.7902 Y-1.2304
G1 X2.8074 Y-1.221
G1 X2.8244 Y-1.2103
G1 X2.8412 Y-1.1983
G1 X2.8576 Y-1.1851
G1 X2.8733 Y-1.1709
G1 X2.8882 Y-1.1556
G1 X2.9022 Y-1.1395
G1 X2.9151 Y-1.1227
G1 X2.9268 Y-1.1055
G1 X2.9373 Y-1.088
G1 X2.9466 Y-1.0701
G1 X2.9546 Y-1.0523
G1 X2.9614 Y-1.0342
G1 X2.967 Y-1.0163
G1 X2.9715 Y-0.9985
G1 X2.9745 Y-0.9823
G1 X2.9765 Y-0.9664
G1 X2.9775 Y-0.9519
G1 X2.9776 Y-0.9378
G1 X2.977 Y-0.9244
G1 X2.9756 Y-0.912
G1 X2.9735 Y-0.8992
G1 X2.9709 Y-0.8881
G1 X2.9674 Y-0.8763
G1 X2.961 Y-0.862
G1 X2.9525 Y-0.8489
G1 X2.9421 Y-0.8372
G1 X2.93 Y-0.8272
G1 X2.9165 Y-0.8192
G1 X2.9019 Y-0.8134
G1 X2.8866 Y-0.8098
G1 X2.871 Y-0.8087
G1 X2.8321
G1 X2.8171 Y-0.8084
G1 X2.8096 Y-0.8081
G3 X2.6581 Y-0.9564 Z-0.482 I-0.0015 J-0.15 F100.
G3 X2.7777 Y-1.1049 I0.15 J-0.0016
G2 X2.771 Y-1.1369 I-0.0033 J-0.016
G2 X2.7583 Y-1.1238 I0.0033 J0.016
G3 X2.6021 Y-1.0324 I-0.1169 J-0.0207
G3 X2.5546 Y-1.2254 Z-0.49 I0.0393 J-0.112
G1 X2.6014 Y-1.2722 F38.197
G1 X2.6075 Y-1.2777
G1 X2.6122 Y-1.2815
G1 X2.6177 Y-1.2854
G1 X2.6236 Y-1.2891
G1 X2.6306 Y-1.2929
G1 X2.638 Y-1.2964
G1 X2.6464 Y-1.2998
G1 X2.6558 Y-1.3029
G1 X2.6656 Y-1.3056
G1 X2.6766 Y-1.3079
G1 X2.6884 Y-1.3096
G1 X2.7008 Y-1.3107
G1 X2.7143 Y-1.3111
G1 X2.7287 Y-1.3107
G1 X2.7434 Y-1.3094
G1 X2.7591 Y-1.307
G1 X2.7757 Y-1.3035
G1 X2.7928 Y-1.2989
G1 X2.8099 Y-1.2931
G1 X2.8277 Y-1.286
G1 X2.8458 Y-1.2774
G1 X2.8641 Y-1.2673
G1 X2.8823 Y-1.2559
G1 X2.9001 Y-1.2433
G1 X2.9175 Y-1.2293
G1 X2.9342 Y-1.2141
G1 X2.9503 Y-1.1978
G1 X2.9654 Y-1.1803
G1 X2.9796 Y-1.162
G1 X2.9927 Y-1.1428
G1 X3.0046 Y-1.1229
G1 X3.0151 Y-1.1028
G1 X3.0242 Y-1.0825
G1 X3.0318 Y-1.0624
G1 X3.0381 Y-1.0426
G1 X3.043 Y-1.0229
G1 X3.0467 Y-1.0035
G1 X3.0491 Y-0.9845
G1 X3.0503 Y-0.9667
G1 X3.0505 Y-0.9502
G1 X3.0498 Y-0.9351
G1 X3.0482 Y-0.9206
G1 X3.0459 Y-0.9072
G1 X3.043 Y-0.8943
G1 X3.0394 Y-0.882
G1 X3.0354 Y-0.8708
G1 X3.0305 Y-0.8594
G1 X3.0292 Y-0.8568
G1 X3.0209 Y-0.8431
G1 X3.0105 Y-0.8309
G1 X2.9983 Y-0.8206
G1 X2.9845 Y-0.8125
G1 X2.9696 Y-0.8067
G1 X2.9539 Y-0.8034
G1 X2.9379 Y-0.8027
G1 X2.922 Y-0.8047
G1 X2.907 Y-0.8068
G3 X2.85 Y-0.8212 Z-0.488 I0.0679 J-0.3878
G3 X2.7004 Y-0.9123 Z-0.482 I0.1249 J-0.3734 F100.
G3 X2.6106 Y-1.0454 I0.2745 J-0.2822
G3 X2.5819 Y-1.2182 Z-0.488 I0.3643 J-0.1492
G3 X2.5829 Y-1.2309 Z-0.4884 I0.393 J0.0236 F38.197
G3 X2.6014 Y-1.2722 Z-0.49 I0.0698 J0.0065
G1 X2.6522 Y-1.323
G1 X2.6566 Y-1.327
G1 X2.6616 Y-1.3309
G1 X2.6673 Y-1.3349
G1 X2.6735 Y-1.3386
G1 X2.6808 Y-1.3425
G1 X2.6886 Y-1.3461
G1 X2.6974 Y-1.3495
G1 X2.7072 Y-1.3526
G1 X2.7175 Y-1.3553
G1 X2.729 Y-1.3575
G1 X2.7414 Y-1.3592
G1 X2.7543 Y-1.3602
G1 X2.7684 Y-1.3604
G1 X2.7836 Y-1.3597
G1 X2.799 Y-1.3582
G1 X2.8156 Y-1.3555
G1 X2.8331 Y-1.3516
G1 X2.851 Y-1.3465
G1 X2.8691 Y-1.3401
G1 X2.8878 Y-1.3323
G1 X2.907 Y-1.3229
G1 X2.9264 Y-1.312
G1 X2.9457 Y-1.2996
G1 X2.9645 Y-1.2858
G1 X2.9829 Y-1.2706
G1 X3.0009 Y-1.2539
G1 X3.0182 Y-1.2358
G1 X3.0346 Y-1.2165
G1 X3.0499 Y-1.1961
G1 X3.064 Y-1.1749
G1 X3.0768 Y-1.153
G1 X3.0881 Y-1.1305
G1 X3.0981 Y-1.1077
G1 X3.1065 Y-1.0847
G1 X3.1133 Y-1.062
G1 X3.1185 Y-1.0399
G1 X3.1223 Y-1.0184
G1 X3.1248 Y-0.9973
G1 X3.1259 Y-0.9768
G1 Y-0.9568
G1 X3.1247 Y-0.9384
G1 X3.1227 Y-0.9214
G1 X3.1199 Y-0.9058
G1 X3.1164 Y-0.8915
G1 X3.1122 Y-0.878
G1 X3.1078 Y-0.8659
G1 X3.1024 Y-0.8537
G1 X3.0971 Y-0.8433
G1 X3.0945 Y-0.8389
G1 X3.0851 Y-0.8255
G1 X3.0737 Y-0.8139
G1 X3.0606 Y-0.8042
G1 X3.0461 Y-0.7967
G1 X3.0305 Y-0.7916
G1 X3.0144 Y-0.7891
G1 X2.9981
G1 X2.982 Y-0.7918
G1 X2.9787 Y-0.7926
G1 X2.952 Y-0.7984
G1 X2.9276 Y-0.8035
G1 X2.922 Y-0.8047
G3 X2.8661 Y-0.8229 Z-0.488 I0.0934 J-0.3825
G3 X2.7229 Y-0.9237 Z-0.482 I0.1493 J-0.3643 F100.
G3 X2.6329 Y-1.094 I0.2926 J-0.2635
G3 X2.6304 Y-1.2692 Z-0.488 I0.3825 J-0.0931
G3 X2.6373 Y-1.2968 Z-0.489 I0.3851 J0.082 F38.197
G3 X2.6522 Y-1.323 Z-0.49 I0.0622 J0.0181
G1 X2.6999 Y-1.3707
G1 X2.7052 Y-1.3755
G1 X2.7102 Y-1.3795
G1 X2.7157 Y-1.3834
G1 X2.7222 Y-1.3875
G1 X2.7226 Y-1.3877
G1 X2.7363 Y-1.3941
G1 X2.7506 Y-1.3987
G1 X2.7655 Y-1.4016
G1 X2.7805 Y-1.4025
G3 X2.8244 Y-1.369 I-0.0017 J0.0477
G3 X2.7957 Y-1.3102 I-0.0456 J0.0141 F100.
G1 X2.7516 Y-1.2936
G3 X2.6926 Y-1.316 I-0.0168 J-0.0446
G3 X2.6999 Y-1.3707 I0.0422 J-0.0222 F38.197
G1 X2.7121 Y-1.3829
G1 X2.7219 Y-1.3921
G1 X2.7271 Y-1.3956
G1 X2.7346 Y-1.3992
G1 X2.7421 Y-1.4014
G1 X2.7496 Y-1.4024
G1 X2.7571 Y-1.4025
G1 X2.8321
G1 X2.8523 Y-1.4015
G1 X2.8672 Y-1.3999
G1 X2.883 Y-1.3972
G1 X2.9 Y-1.3933
G1 X2.9175 Y-1.3881
G1 X2.9354 Y-1.3817
G1 X2.9541 Y-1.3737
G1 X2.9736 Y-1.364
G1 X2.9931 Y-1.3528
G1 X3.0125 Y-1.3401
G1 X3.0319 Y-1.3257
G1 X3.0512 Y-1.3095
G1 X3.0701 Y-1.2917
G1 X3.0884 Y-1.2723
G1 X3.1058 Y-1.2514
G1 X3.1222 Y-1.2293
G1 X3.1373 Y-1.2062
G1 X3.151 Y-1.1822
G1 X3.1632 Y-1.1576
G1 X3.1739 Y-1.1326
G1 X3.1829 Y-1.1073
G1 X3.1903 Y-1.0819
G1 X3.1961 Y-1.0567
G1 X3.2003 Y-1.0319
G1 X3.2029 Y-1.0077
G1 X3.204 Y-0.9846
G1 X3.2038 Y-0.9625
G1 X3.2023 Y-0.9413
G1 X3.1997 Y-0.9211
G1 X3.1964 Y-0.9034
G1 X3.1921 Y-0.8861
G1 X3.1875 Y-0.8715
G1 X3.182 Y-0.857
G1 X3.1765 Y-0.8448
G1 X3.1699 Y-0.8322
G1 X3.1636 Y-0.8217
G1 X3.1562 Y-0.8109
G1 X3.149 Y-0.8015
G1 X3.1378 Y-0.7905
G1 X3.1251 Y-0.7814
G1 X3.111 Y-0.7744
G1 X3.0961 Y-0.7696
G1 X3.0806 Y-0.7673
G1 X3.0649
G1 X3.0494 Y-0.7698
G1 X3.0345 Y-0.7747
G1 X3.027 Y-0.7778
G1 X3.0187 Y-0.7811
G3 X2.9697 Y-0.813 Z-0.488 I0.0558 J-0.1393
G3 X2.9493 Y-0.8377 Z-0.4869 I0.1048 J-0.1073 F100.
G1 X2.8697 Y-0.9583 Z-0.482
G1 X2.727 Y-1.1743
G3 X2.7037 Y-1.2362 I0.1252 J-0.0826
G3 X2.7755 Y-1.3859 Z-0.488 I0.1486 J-0.0208
G1 X2.7761 Y-1.3862
G3 X2.8321 Y-1.4025 Z-0.49 I0.0601 J0.1024 F38.197
G1 X2.967
G1 X2.976 Y-1.402
G1 X2.986 Y-1.401
G1 X2.9974 Y-1.399
G1 X3.0092 Y-1.3963
G1 X3.0223 Y-1.3925
G1 X3.036 Y-1.3875
G1 X3.0504 Y-1.3814
G1 X3.0661 Y-1.3736
G1 X3.0817 Y-1.3646
G1 X3.0982 Y-1.3538
G1 X3.1155 Y-1.341
G1 X3.1324 Y-1.3268
G1 X3.1492 Y-1.3109
G1 X3.1662 Y-1.2929
G1 X3.1828 Y-1.2731
G1 X3.1987 Y-1.2515
G1 X3.2137 Y-1.2286
G1 X3.2276 Y-1.2044
G1 X3.2401 Y-1.1791
G1 X3.2513 Y-1.1529
G1 X3.2609 Y-1.126
G1 X3.2689 Y-1.0987
G1 X3.2751 Y-1.0715
G1 X3.2797 Y-1.0444
G1 X3.2825 Y-1.0181
G1 X3.2838 Y-0.9923
G1 X3.2835 Y-0.9675
G1 X3.2819 Y-0.9436
G1 X3.279 Y-0.921
G1 X3.2749 Y-0.8996
G1 X3.2699 Y-0.8794
G1 X3.2639 Y-0.8604
G1 X3.2578 Y-0.8443
G1 X3.251 Y-0.8292
G1 X3.2441 Y-0.8159
G1 X3.2365 Y-0.8034
G1 X3.2291 Y-0.7925
G1 X3.2208 Y-0.7817
G1 X3.2129 Y-0.7727
G1 X3.2039 Y-0.7635
G1 X3.2032 Y-0.7629
G1 X3.1899 Y-0.7527
G1 X3.175 Y-0.745
G1 X3.1591 Y-0.7399
G1 X3.1425 Y-0.7376
G1 X3.1258 Y-0.7382
G1 X3.1094 Y-0.7415
G1 X3.0938 Y-0.7477
G1 X3.0869 Y-0.7509
G1 X3.0719 Y-0.7579
G1 X3.042 Y-0.7716
G1 X3.0345 Y-0.7747
G3 X2.9871 Y-0.8088 Z-0.488 I0.0622 J-0.1365
G3 X2.9558 Y-0.8597 Z-0.486 I0.1097 J-0.1023 F100.
G1 X2.9159 Y-0.9692 Z-0.482
G1 X2.8313 Y-1.2012
G3 X2.8223 Y-1.2475 I0.1409 J-0.0514
G3 X2.9101 Y-1.3891 Z-0.488 I0.1499 J-0.0051
G3 X2.967 Y-1.4025 Z-0.49 I0.0622 J0.1365 F38.197
G1 X3.0652
G1 X3.0781 Y-1.4019
G1 X3.0869 Y-1.4009
G1 X3.0967 Y-1.3992
G1 X3.107 Y-1.3969
G1 X3.1186 Y-1.3935
G1 X3.1303 Y-1.3893
G1 X3.1435 Y-1.3836
G1 X3.1566 Y-1.3771
G1 X3.1709 Y-1.3689
G1 X3.1858 Y-1.3591
G1 X3.2007 Y-1.3481
G1 X3.2164 Y-1.3349
G1 X3.2323 Y-1.3199
G1 X3.2477 Y-1.3036
G1 X3.2631 Y-1.2851
G1 X3.2784 Y-1.2645
G1 X3.2931 Y-1.242
G1 X3.3068 Y-1.218
G1 X3.3193 Y-1.1928
G1 X3.3306 Y-1.1664
G1 X3.3404 Y-1.1388
G1 X3.3487 Y-1.1105
G1 X3.3553 Y-1.0818
G1 X3.3601 Y-1.0528
G1 X3.3633 Y-1.024
G1 X3.3646 Y-0.9957
G1 X3.3644 Y-0.9682
G1 X3.3625 Y-0.9417
G1 X3.3593 Y-0.9164
G1 X3.3547 Y-0.8923
G1 X3.349 Y-0.8695
G1 X3.3423 Y-0.8482
G1 X3.3348 Y-0.8284
G1 X3.3264 Y-0.8098
G1 X3.3184 Y-0.7943
G1 X3.3094 Y-0.7793
G1 X3.3011 Y-0.7672
G1 X3.2918 Y-0.7551
G1 X3.2831 Y-0.7452
G1 X3.2736 Y-0.7355
G1 X3.2643 Y-0.7271
G1 X3.2551 Y-0.7197
G1 X3.2415 Y-0.7115
G1 X3.2268 Y-0.7056
G1 X3.2113 Y-0.7021
G1 X3.1955 Y-0.701
G1 X3.1797 Y-0.7024
G1 X3.1644 Y-0.7063
G1 X3.1498 Y-0.7126
G1 X3.1364 Y-0.7211
G1 X3.1319 Y-0.7244
G1 X3.1192 Y-0.7327
G1 X3.1019 Y-0.7436
G1 X3.0938 Y-0.7477
G3 X3.0487 Y-0.7849 Z-0.488 I0.0712 J-0.132
G3 X3.0197 Y-0.8428 Z-0.4858 I0.1163 J-0.0947 F100.
G1 X2.9923 Y-0.9507 Z-0.482
G1 X2.925 Y-1.2157
G3 X2.9205 Y-1.2475 I0.1454 J-0.0369
G3 X3.0083 Y-1.3891 Z-0.488 I0.1499 J-0.0051
G3 X3.0652 Y-1.4025 Z-0.49 I0.0622 J0.1365 F38.197
G1 X3.1619
G1 X3.171 Y-1.402
G1 X3.1792 Y-1.4011
G1 X3.1883 Y-1.3996
G1 X3.1981 Y-1.3974
G1 X3.2085 Y-1.3943
G1 X3.2199 Y-1.3902
G1 X3.2316 Y-1.3852
G1 X3.2445 Y-1.3788
G1 X3.2574 Y-1.3714
G1 X3.2714 Y-1.3622
G1 X3.2857 Y-1.3516
G1 X3.3001 Y-1.3395
G1 X3.3152 Y-1.3253
G1 X3.3303 Y-1.3093
G1 X3.3448 Y-1.2919
G1 X3.3594 Y-1.2722
G1 X3.3737 Y-1.2503
G1 X3.3873 Y-1.2265
G1 X3.3998 Y-1.2014
G1 X3.411 Y-1.175
G1 X3.421 Y-1.1469
G1 X3.4296 Y-1.1177
G1 X3.4365 Y-1.0876
G1 X3.4416 Y-1.0571
G1 X3.4449 Y-1.0265
G1 X3.4464 Y-0.996
G1 X3.4461 Y-0.966
G1 X3.4441 Y-0.9366
G1 X3.4404 Y-0.9082
G1 X3.4353 Y-0.8813
G1 X3.429 Y-0.8559
G1 X3.4215 Y-0.832
G1 X3.4129 Y-0.8095
G1 X3.4035 Y-0.7886
G1 X3.3935 Y-0.7694
G1 X3.3829 Y-0.7517
G1 X3.373 Y-0.7372
G1 X3.3624 Y-0.7235
G1 X3.3526 Y-0.7122
G1 X3.342 Y-0.7014
G1 X3.3321 Y-0.6925
G1 X3.3213 Y-0.6838
G1 X3.3115 Y-0.6768
G1 X3.2966 Y-0.669
G1 X3.2808 Y-0.6636
G1 X3.2643 Y-0.6606
G1 X3.2476 Y-0.6603
G1 X3.231 Y-0.6624
G1 X3.2149 Y-0.6671
G1 X3.1998 Y-0.6742
G1 X3.1859 Y-0.6836
G1 X3.1769 Y-0.6907
G1 X3.1609 Y-0.7027
G1 X3.1364 Y-0.7211
G3 X3.0988 Y-0.7659 Z-0.488 I0.0939 J-0.1169
G3 X3.082 Y-0.8154 Z-0.4862 I0.1315 J-0.0721 F100.
G1 X3.0633 Y-0.9381 Z-0.482
G1 X3.0188 Y-1.23
G3 X3.0172 Y-1.2475 I0.1483 J-0.0226
G3 X3.105 Y-1.3891 Z-0.488 I0.1499 J-0.0051
G3 X3.1619 Y-1.4025 Z-0.49 I0.0622 J0.1365 F38.197
G1 X3.2518
G1 X3.2595 Y-1.4021
G1 X3.2677 Y-1.4012
G1 X3.2761 Y-1.3998
G1 X3.2858 Y-1.3976
G1 X3.2956 Y-1.3947
G1 X3.3066 Y-1.3907
G1 X3.3178 Y-1.386
G1 X3.33 Y-1.3799
G1 X3.3426 Y-1.3726
G1 X3.3557 Y-1.364
G1 X3.3698 Y-1.3536
G1 X3.3836 Y-1.3421
G1 X3.3979 Y-1.3285
G1 X3.4128 Y-1.3127
G1 X3.4269 Y-1.2958
G1 X3.4411 Y-1.2767
G1 X3.4552 Y-1.2552
G1 X3.4687 Y-1.2315
G1 X3.4811 Y-1.2065
G1 X3.4924 Y-1.1799
G1 X3.4955 Y-1.1714
G1 X3.4994 Y-1.1582
G1 X3.5017 Y-1.1446
G1 X3.5025 Y-1.1308
G1 Y-0.9125
G1 X3.5007 Y-0.876
G1 X3.4985 Y-0.8558
G1 X3.495 Y-0.8354
G1 X3.4902 Y-0.8147
G1 X3.4842 Y-0.7943
G1 X3.477 Y-0.7742
G1 X3.4688 Y-0.7549
G1 X3.4596 Y-0.7365
G1 X3.4496 Y-0.7191
G1 X3.4389 Y-0.7027
G1 X3.4289 Y-0.6892
G1 X3.4179 Y-0.6761
G1 X3.4079 Y-0.6655
G1 X3.3968 Y-0.655
G1 X3.3866 Y-0.6465
G1 X3.3753 Y-0.6382
G1 X3.365 Y-0.6314
G1 X3.3536 Y-0.6249
G1 X3.3429 Y-0.6196
G1 X3.3319 Y-0.6149
G1 X3.3159 Y-0.6107
G1 X3.2994 Y-0.6093
G1 X3.2829 Y-0.6107
G1 X3.2669 Y-0.6149
G1 X3.2518 Y-0.6218
G1 X3.2381 Y-0.6311
G1 X3.2262 Y-0.6426
G1 X3.2219 Y-0.6476
G1 X3.2129 Y-0.6577
G3 X3.1828 Y-0.7081 Z-0.488 I0.152 J-0.1251
G3 X3.1929 Y-0.8785 Z-0.482 I0.1821 J-0.0748 F100.
G3 X3.2932 Y-0.9662 I0.172 J0.0957
G3 X3.4634 Y-0.9533 Z-0.488 I0.0717 J0.1833
G3 X3.4929 Y-0.9324 Z-0.4892 I-0.0985 J0.1704 F38.197
G3 X3.5025 Y-0.9125 Z-0.49 I-0.0178 J0.0208
G1 Y-0.7544
G1 X3.5018 Y-0.741
G1 X3.5008 Y-0.7311
G1 X3.499 Y-0.721
G1 X3.4966 Y-0.7103
G1 X3.4933 Y-0.699
G1 X3.4892 Y-0.6877
G1 X3.4843 Y-0.6763
G1 X3.4785 Y-0.6647
G1 X3.4719 Y-0.6531
G1 X3.4644 Y-0.6417
G1 X3.4561 Y-0.6305
G1 X3.447 Y-0.6197
G1 X3.4383 Y-0.6104
G1 X3.4287 Y-0.6014
G1 X3.4193 Y-0.5936
G1 X3.4101 Y-0.5867
G1 X3.4 Y-0.5801
G1 X3.3907 Y-0.5748
G1 X3.3805 Y-0.5698
G1 X3.3706 Y-0.5655
G1 X3.3662 Y-0.5639
G1 X3.3522 Y-0.5602
G1 X3.3378 Y-0.5588
G1 X3.3233 Y-0.5599
G1 X3.3093 Y-0.5633
G1 X3.2959 Y-0.5689
G1 X3.2837 Y-0.5767
G1 X3.273 Y-0.5864
G1 X3.264 Y-0.5978
G3 X3.23 Y-0.6459 Z-0.488 I1.2452 J-0.9139
G3 X3.218 Y-0.6639 Z-0.4873 I1.2791 J-0.8658 F100.
G3 X3.206 Y-0.812 Z-0.482 I0.1296 J-0.0851
G3 X3.3502 Y-0.904 I0.1416 J0.063
G3 X3.4895 Y-0.8115 Z-0.488 I-0.0026 J0.155
G3 X3.5025 Y-0.7544 Z-0.49 I-0.1419 J0.0625 F38.197
G1 Y-0.6608
G1 X3.5021 Y-0.6523
G1 X3.5013 Y-0.6455
G1 X3.5001 Y-0.638
G1 X3.4982 Y-0.6301
G1 X3.4959 Y-0.6221
G1 X3.4929 Y-0.6138
G1 X3.4892 Y-0.6051
G1 X3.4848 Y-0.5963
G1 X3.4798 Y-0.5876
G1 X3.4741 Y-0.5789
G1 X3.4677 Y-0.5703
G1 X3.4612 Y-0.5625
G1 X3.4537 Y-0.5546
G1 X3.4463 Y-0.5476
G1 X3.4389 Y-0.5414
G1 X3.4307 Y-0.5353
G1 X3.423 Y-0.5303
G1 X3.4145 Y-0.5254
G1 X3.406 Y-0.5212
G1 X3.3979 Y-0.5178
G1 X3.3824 Y-0.5137
G1 X3.3665 Y-0.5125
G1 X3.3505 Y-0.5141
G1 X3.3351 Y-0.5184
G1 X3.3207 Y-0.5254
G1 X3.3078 Y-0.5348
G1 X3.2967 Y-0.5463
G1 X3.2878 Y-0.5596
G3 X3.2664 Y-0.6036 Z-0.4883 I1.695 J-0.8526
G3 X3.2625 Y-0.6128 Z-0.488 I0.1122 J-0.0528
G3 X3.3185 Y-0.7649 Z-0.482 I0.1161 J-0.0437 F100.
G3 X3.3345 Y-0.7723 I0.0601 J0.1084
G3 X3.4868 Y-0.7169 Z-0.488 I0.0441 J0.1159
G3 X3.5025 Y-0.6608 Z-0.49 I-0.1082 J0.0605 F38.197
G1 Y-0.5895
G1 X3.5021 Y-0.582
G1 X3.5015 Y-0.576
G1 X3.5004 Y-0.5701
G1 X3.4956 Y-0.5551
G1 X3.4883 Y-0.5412
G1 X3.4787 Y-0.5286
G1 X3.4673 Y-0.5179
G1 X3.4541 Y-0.5091
G1 X3.4397 Y-0.5027
G1 X3.4245 Y-0.4988
G1 X3.4088 Y-0.4975
G3 X3.3548 Y-0.5182 I0.0031 J-0.0891
G3 X3.326 Y-0.6106 I0.0571 J-0.0684 F100.
G3 X3.482 Y-0.6436 I0.0866 J0.0242
G3 X3.5025 Y-0.5895 I-0.0693 J0.0572 F38.197
G1 Y-0.5528
G1 X3.5024 Y-0.5453
G1 X3.5014 Y-0.5378
G1 X3.4993 Y-0.5303
G1 X3.4957 Y-0.5228
G1 X3.4917 Y-0.5171
G1 X3.487 Y-0.5118
G1 X3.4822 Y-0.5079
G1 X3.4767 Y-0.5042
G1 X3.4692 Y-0.5007
G1 X3.4617 Y-0.4985
G1 X3.4542 Y-0.4976
G1 X3.4467 Y-0.4975
G1 X3.3568
G1 X3.3493
G1 X3.3418 Y-0.4984
G1 X3.3343 Y-0.5005
G1 X3.3268 Y-0.504
G1 X3.321 Y-0.5079
G1 X3.3158 Y-0.5125
G1 X3.3118 Y-0.5171
G1 X3.308 Y-0.5228
G1 X3.2915 Y-0.5528
G1 X3.2884 Y-0.5595 F100.
G2 X3.2647 Y-0.5969 I-0.1372 J0.0607
G1 X3.264 Y-0.5978
G1 X3.2521 Y-0.6128 F38.197
G1 X3.2262 Y-0.6426
G3 X3.199 Y-0.6944 Z-0.488 I0.1166 J-0.0943
G3 X3.1949 Y-0.7123 Z-0.4874 I0.1438 J-0.0425 F100.
G1 X3.1689 Y-0.8684 Z-0.482
G1 X3.1091 Y-1.228
G3 X3.1072 Y-1.2475 I0.148 J-0.0246
G3 X3.1949 Y-1.3891 Z-0.488 I0.1499 J-0.0051
G3 X3.2518 Y-1.4025 Z-0.49 I0.0622 J0.1365 F38.197
G1 X3.3351
G1 X3.3458 Y-1.402
G1 X3.3538 Y-1.4011
G1 X3.362 Y-1.3997
G1 X3.3713 Y-1.3975
G1 X3.3809 Y-1.3947
G1 X3.3915 Y-1.3909
G1 X3.4026 Y-1.3862
G1 X3.4143 Y-1.3804
G1 X3.4269 Y-1.3731
G1 X3.4395 Y-1.3649
G1 X3.4532 Y-1.3547
G1 X3.4593 Y-1.3496
G1 X3.4719 Y-1.3374
G1 X3.4826 Y-1.3234
G1 X3.4912 Y-1.3081
G1 X3.4974 Y-1.2917
G1 X3.5012 Y-1.2745
G1 X3.5025 Y-1.257
G3 X3.491 Y-1.1995 Z-0.488 I-0.1811 J-0.0063
G3 X3.4582 Y-1.1444 Z-0.4858 I-0.1697 J-0.0638 F100.
G3 X3.3616 Y-1.0922 Z-0.482 I-0.1177 J-0.1023
G3 X3.1846 Y-1.2506 I-0.0211 J-0.1545
G3 X3.278 Y-1.3895 Z-0.488 I0.1559 J0.0039
G3 X3.3351 Y-1.4025 Z-0.49 I0.0625 J0.1428 F38.197
G1 X3.4213
G1 X3.429 Y-1.4021
G1 X3.4437 Y-1.3991
G1 X3.4577 Y-1.3935
G1 X3.4704 Y-1.3854
G1 X3.4814 Y-1.3752
G1 X3.4904 Y-1.3631
G1 X3.4971 Y-1.3496
G1 X3.5011 Y-1.3351
G1 X3.5025 Y-1.3201
G3 X3.4796 Y-1.2673 I-0.0786 J-0.0027
G3 X3.403 Y-1.2471 I-0.0557 J-0.0555 F100.
G3 X3.3684 Y-1.3797 I0.021 J-0.0763
G3 X3.4213 Y-1.4025 I0.0556 J0.0563 F38.197
G1 X3.4467
G1 X3.4542 Y-1.4024
G1 X3.4617 Y-1.4015
G1 X3.4692 Y-1.3993
G1 X3.4767 Y-1.3958
G1 X3.4822 Y-1.3921
G1 X3.487 Y-1.3882
G1 X3.4917 Y-1.3829
G1 X3.4957 Y-1.3772
G1 X3.4993 Y-1.3697
G1 X3.5014 Y-1.3622
G1 X3.5024 Y-1.3547
G1 X3.5025 Y-1.3472
G1 Y-1.1308
G3 X3.4891 Y-1.0738 I-0.1499 J-0.0052
G1 X3.4852 Y-1.0652 Z-0.4897
G1 X3.4813 Y-1.0567 Z-0.4888
G1 X3.4774 Y-1.0482 Z-0.4873
G1 X3.4736 Y-1.0398 Z-0.4853
G1 X3.4699 Y-1.0316 Z-0.4827
G1 X3.4662 Y-1.0235 Z-0.4795
G1 X3.4626 Y-1.0157 Z-0.4757
G1 X3.4591 Y-1.008 Z-0.4714
G1 X3.4558 Y-1.0007 Z-0.4666
G1 X3.4525 Y-0.9936 Z-0.4614
G1 X3.4494 Y-0.9868 Z-0.4556
G1 X3.4465 Y-0.9804 Z-0.4493
G1 X3.4437 Y-0.9743 Z-0.4427
G1 X3.4412 Y-0.9686 Z-0.4356
G1 X3.4388 Y-0.9634 Z-0.4282
G1 X3.4366 Y-0.9585 Z-0.4204
G1 X3.4346 Y-0.9542 Z-0.4123
G1 X3.4328 Y-0.9503 Z-0.4039
G1 X3.4312 Y-0.9469 Z-0.3952
G1 X3.4299 Y-0.944 Z-0.3864
G1 X3.4288 Y-0.9416 Z-0.3773
G1 X3.428 Y-0.9397 Z-0.3681
G1 X3.4274 Y-0.9384 Z-0.3588
G1 X3.427 Y-0.9376 Z-0.3494
G1 X3.4269 Y-0.9373 Z-0.34
G0 Z0.2
G0 X1.0021 Y-0.9202
G0 Z-0.19
G1 Z-0.34 F38.197
G1 X1.0019 Y-0.92 Z-0.3494
G1 X1.0015 Y-0.9192 Z-0.3588
G1 X1.0009 Y-0.9179 Z-0.3681
G1 X0.9999 Y-0.916 Z-0.3773
G1 X0.9987 Y-0.9137 Z-0.3864
G1 X0.9973 Y-0.9108 Z-0.3952
G1 X0.9956 Y-0.9075 Z-0.4039
G1 X0.9937 Y-0.9037 Z-0.4123
G1 X0.9915 Y-0.8994 Z-0.4204
G1 X0.9891 Y-0.8947 Z-0.4282
G1 X0.9865 Y-0.8895 Z-0.4356
G1 X0.9837 Y-0.884 Z-0.4427
G1 X0.9807 Y-0.878 Z-0.4493
G1 X0.9775 Y-0.8717 Z-0.4556
G1 X0.9742 Y-0.8651 Z-0.4614
G1 X0.9706 Y-0.8581 Z-0.4666
G1 X0.967 Y-0.8509 Z-0.4714
G1 X0.9632 Y-0.8434 Z-0.4757
G1 X0.9593 Y-0.8357 Z-0.4795
G1 X0.9553 Y-0.8277 Z-0.4827
G1 X0.9512 Y-0.8197 Z-0.4853
G1 X0.9471 Y-0.8115 Z-0.4873
G1 X0.9429 Y-0.8032 Z-0.4888
G1 X0.9386 Y-0.7948 Z-0.4897
G1 X0.9344 Y-0.7864 Z-0.49
G3 X0.8956 Y-0.7421 I-0.1059 J-0.0536
G1 X0.8808 Y-0.7327
G1 X0.8681 Y-0.7244
G1 X0.8381 Y-0.702
G1 X0.8299 Y-0.6958
G1 X0.8196 Y-0.6888
G1 X0.8131 Y-0.6849
G1 X0.806 Y-0.6812
G1 X0.7978 Y-0.6775
G1 X0.789 Y-0.6742
G1 X0.7791 Y-0.6711
G1 X0.7682 Y-0.6684
G1 X0.7568 Y-0.6663
G1 X0.7441 Y-0.6647
G1 X0.7306 Y-0.6638
G1 X0.7165 Y-0.6636
G1 X0.7013 Y-0.6644
G1 X0.6852 Y-0.6662
G1 X0.6688 Y-0.669
G1 X0.6519 Y-0.6729
G1 X0.6341 Y-0.6781
G1 X0.6159 Y-0.6847
G1 X0.5974 Y-0.6925
G1 X0.5791 Y-0.7017
G1 X0.561 Y-0.7121
G1 X0.5521 Y-0.7179
G1 X0.5385 Y-0.7283
G1 X0.5265 Y-0.7405
G1 X0.5163 Y-0.7542
G1 X0.5082 Y-0.7692
G1 X0.5023 Y-0.7852
G1 X0.4987 Y-0.8019
G1 X0.4975 Y-0.819
G1 Y-0.9183
G3 X0.4988 Y-0.9379 Z-0.4893 I0.15 J0.
G3 X0.511 Y-0.9749 Z-0.488 I0.104 J0.0137
G3 X0.5488 Y-1.0141 Z-0.4861 I0.0918 J0.0507 F100.
G3 X0.6646 Y-1.0454 Z-0.482 I0.113 J0.1882
G3 X0.8626 Y-0.9144 I-0.0029 J0.2194
G3 X0.8649 Y-0.7431 Z-0.488 I-0.2009 J0.0884
G1 X0.8647 Y-0.7425
G3 X0.8299 Y-0.6958 Z-0.49 I-0.1097 J-0.0454 F38.197
G1 X0.8231 Y-0.6907
G1 X0.8081 Y-0.6788
G1 X0.8016 Y-0.6727
G1 X0.7931 Y-0.6646
G1 X0.7871 Y-0.6577
G1 X0.7819 Y-0.6525
G1 X0.7775 Y-0.6484
G1 X0.7726 Y-0.6445
G1 X0.7672 Y-0.6407
G1 X0.7609 Y-0.6368
G1 X0.754 Y-0.6331
G1 X0.7462 Y-0.6294
G1 X0.7374 Y-0.6259
G1 X0.7281 Y-0.6228
G1 X0.7175 Y-0.62
G1 X0.7063 Y-0.6177
G1 X0.6941 Y-0.616
G1 X0.6807 Y-0.6148
G1 X0.6668 Y-0.6145
G1 X0.6519 Y-0.615
G1 X0.6359 Y-0.6164
G1 X0.6202 Y-0.6188
G1 X0.6045 Y-0.6222
G1 X0.5901 Y-0.6261
G1 X0.5762 Y-0.6309
G1 X0.5634 Y-0.6361
G1 X0.5473 Y-0.6454
G1 X0.5329 Y-0.6572
G1 X0.5206 Y-0.6711
G1 X0.5107 Y-0.6869
G1 X0.5034 Y-0.704
G1 X0.499 Y-0.722
G1 X0.4975 Y-0.7405
G1 Y-0.819
G3 X0.5131 Y-0.8752 Z-0.488 I0.1245 J0.0043
G3 X0.5549 Y-0.9196 Z-0.4859 I0.1089 J0.0605 F100.
G3 X0.6646 Y-0.9469 Z-0.482 I0.0954 J0.1493
G3 X0.7923 Y-0.8762 I-0.0143 J0.1766
G3 X0.8163 Y-0.7085 Z-0.488 I-0.142 J0.1059
G3 X0.7871 Y-0.6577 Z-0.49 I-0.166 J-0.0618 F38.197
G1 X0.7781 Y-0.6476
G1 X0.7479 Y-0.6128
G1 X0.7468 Y-0.6114
G1 X0.7428 Y-0.6069
G1 X0.7386 Y-0.6026
G1 X0.734 Y-0.5985
G1 X0.7286 Y-0.5943
G1 X0.7228 Y-0.5902
G1 X0.7159 Y-0.586
G1 X0.7084 Y-0.582
G1 X0.7001 Y-0.5781
G1 X0.6908 Y-0.5745
G1 X0.681 Y-0.5713
G1 X0.6703 Y-0.5685
G1 X0.6588 Y-0.5662
G1 X0.6467 Y-0.5646
G1 X0.6352 Y-0.5636
G1 X0.6237 Y-0.5634
G1 X0.6117 Y-0.5639
G1 X0.6011 Y-0.5649
G1 X0.5894 Y-0.5668
G1 X0.5787 Y-0.5691
G1 X0.5685 Y-0.572
G1 X0.5535 Y-0.5785
G1 X0.5398 Y-0.5872
G1 X0.5275 Y-0.598
G1 X0.5171 Y-0.6105
G1 X0.5087 Y-0.6244
G1 X0.5025 Y-0.6395
G1 X0.4988 Y-0.6554
G1 X0.4975 Y-0.6717
G3 X0.5047 Y-0.724 Z-0.4882 I0.2612 J0.0091
G1 X0.5062 Y-0.7298 Z-0.488
G3 X0.638 Y-0.8281 Z-0.482 I0.1308 J0.0378 F100.
G3 X0.6992 Y-0.8131 I-0.001 J0.1362
G3 X0.7704 Y-0.6648 Z-0.488 I-0.0622 J0.1211
G3 X0.7468 Y-0.6114 Z-0.49 I-0.1334 J-0.0272 F38.197
G1 X0.736 Y-0.5978
G1 X0.726 Y-0.5828
G1 X0.7182 Y-0.5706
G1 X0.7173 Y-0.569
G1 X0.7142 Y-0.5639
G1 X0.7105 Y-0.5592
G1 X0.7064 Y-0.5548
G1 X0.702 Y-0.5506
G1 X0.6969 Y-0.5461
G1 X0.6912 Y-0.5418
G1 X0.685 Y-0.5376
G1 X0.6781 Y-0.5336
G1 X0.6705 Y-0.5297
G1 X0.6625 Y-0.5261
G1 X0.6539 Y-0.5229
G1 X0.6448 Y-0.5201
G1 X0.6363 Y-0.518
G1 X0.6267 Y-0.5163
G1 X0.6176 Y-0.5152
G1 X0.6087 Y-0.5146
G1 X0.5989
G1 X0.59 Y-0.515
G1 X0.5807 Y-0.5161
G1 X0.5784 Y-0.5165
G1 X0.5619 Y-0.5209
G1 X0.5465 Y-0.5281
G1 X0.5325 Y-0.5378
G1 X0.5204 Y-0.5499
G1 X0.5106 Y-0.5639
G1 X0.5034 Y-0.5793
G1 X0.499 Y-0.5958
G1 X0.4975 Y-0.6128
G3 X0.5011 Y-0.6435 I0.1915 J0.0067
G3 X0.5098 Y-0.67 I0.1132 J0.0225
G3 X0.7296 Y-0.626 I0.1045 J0.049 F100.
G3 X0.7173 Y-0.569 I-0.1153 J0.0051 F38.197
G1 X0.692 Y-0.5228
G1 X0.6882 Y-0.5171
G1 X0.6842 Y-0.5125
G1 X0.679 Y-0.5079
G1 X0.6732 Y-0.504
G1 X0.6657 Y-0.5005
G1 X0.6582 Y-0.4984
G1 X0.6507 Y-0.4975
G1 X0.6432
G1 X0.56
G1 X0.5515 Y-0.4979
G1 X0.5391 Y-0.5006
G1 X0.5276 Y-0.5058
G1 X0.5174 Y-0.5132
G1 X0.509 Y-0.5226
G1 X0.5027 Y-0.5336
G1 X0.4988 Y-0.5456
G1 X0.4975 Y-0.5581
G3 X0.5149 Y-0.5991 I0.0618 J0.0022
G3 X0.5253 Y-0.6076 I0.043 J0.0417
G3 X0.5579 Y-0.6172 I0.0327 J0.0502 F100.
G3 X0.6089 Y-0.5259 I0. J0.0599
G3 X0.56 Y-0.4975 I-0.051 J-0.0314 F38.197
G1 X0.5533
G1 X0.5458 Y-0.4976
G1 X0.5383 Y-0.4985
G1 X0.5308 Y-0.5007
G1 X0.5233 Y-0.5042
G1 X0.5178 Y-0.5079
G1 X0.513 Y-0.5118
G1 X0.5083 Y-0.5171
G1 X0.5043 Y-0.5228
G1 X0.5007 Y-0.5303
G1 X0.4986 Y-0.5378
G1 X0.4976 Y-0.5453
G1 X0.4975 Y-0.5528
G1 Y-0.7405
G3 X0.5109 Y-0.7975 I0.1499 J0.0052
G1 X0.5148 Y-0.8061 Z-0.4897
G1 X0.5187 Y-0.8146 Z-0.4888
G1 X0.5226 Y-0.8231 Z-0.4873
G1 X0.5264 Y-0.8315 Z-0.4853
G1 X0.5301 Y-0.8397 Z-0.4827
G1 X0.5338 Y-0.8478 Z-0.4795
G1 X0.5374 Y-0.8556 Z-0.4757
G1 X0.5409 Y-0.8633 Z-0.4714
G1 X0.5442 Y-0.8707 Z-0.4666
G1 X0.5475 Y-0.8777 Z-0.4614
G1 X0.5506 Y-0.8845 Z-0.4556
G1 X0.5535 Y-0.891 Z-0.4493
G1 X0.5563 Y-0.897 Z-0.4427
G1 X0.5588 Y-0.9027 Z-0.4356
G1 X0.5612 Y-0.9079 Z-0.4282
G1 X0.5634 Y-0.9128 Z-0.4204
G1 X0.5654 Y-0.9171 Z-0.4123
G1 X0.5672 Y-0.921 Z-0.4039
G1 X0.5688 Y-0.9244 Z-0.3952
G1 X0.5701 Y-0.9273 Z-0.3864
G1 X0.5712 Y-0.9297 Z-0.3773
G1 X0.572 Y-0.9316 Z-0.3681
G1 X0.5726 Y-0.9329 Z-0.3588
G1 X0.573 Y-0.9337 Z-0.3494
G1 X0.5731 Y-0.934 Z-0.34
G0 Z0.4

N30 (2D Contour1)
S400 M3 M8
G0 X4.0872 Y-2.1879
G0 Z0.4
G0 Z0.
G1 Z-0.7006 F9.167
G1 Z-0.74
G1 G41.2 X4.0298 Y-2.104 D4 F38.197
G3 X3.99 Y-2.0875 I-0.0398 J-0.0398
G1 X0.01
G2 X-0.1875 Y-1.89 I0. J0.1975
G1 Y-0.01
G2 X0.01 Y0.1875 I0.1975 J0.
G1 X3.99
G2 X4.1875 Y-0.01 I0. J-0.1975
G1 Y-1.89
G2 X3.99 Y-2.0875 I-0.1975 J0.
G3 X3.9502 Y-2.104 I0. J-0.0562
G1 G40 X3.8928 Y-2.1879
G0 Z0.4

N40 (2D Pocket1)
S400 M3 M8
G0 X1.7692 Y-0.7068
G0 Z0.4
G0 Z0.1375
G1 Z0.1 F9.167
G1 Z-0.4625
G1 X1.7691 Y-0.7067 Z-0.4658
G1 X1.7689 Y-0.7063 Z-0.469
G1 X1.7685 Y-0.7057 Z-0.4722
G1 X1.7679 Y-0.7049 Z-0.4753
G1 X1.7672 Y-0.7039 Z-0.4783
G1 X1.7662 Y-0.7028 Z-0.4813
G1 X1.7651 Y-0.7014 Z-0.484
G1 X1.7637 Y-0.7 Z-0.4866
G1 X1.762 Y-0.6985 Z-0.489
G1 X1.7601 Y-0.697 Z-0.4912
G1 X1.758 Y-0.6955 Z-0.4932
G1 X1.7556 Y-0.6941 Z-0.495
G1 X1.753 Y-0.6928 Z-0.4965
G1 X1.7502 Y-0.6917 Z-0.4977
G1 X1.7473 Y-0.6908 Z-0.4987
G1 X1.7441 Y-0.6901 Z-0.4994
G1 X1.7409 Y-0.6897 Z-0.4999
G1 X1.7377 Y-0.6895 Z-0.5
G1 X1.7347 F38.197
G2 X1.7198 Y-0.711 I-0.5847 J0.3895
G2 X1.7625 Y-0.6895 I0.2802 J-0.505
G1 X1.7377
G1 X1.7349 Y-0.6898
G1 X1.7322 Y-0.6904
G1 X0.8913 Y-0.9486
G2 X0.8785 Y-0.948 I-0.0055 J0.0179
G2 X0.6895 Y-0.8306 I0.2715 J0.648
G1 Y-1.2105
G1 X1.1888
G1 X1.4779 Y-0.9213
G2 X0.8785 Y-0.948 I-0.3279 J0.6213
G2 X0.8829 Y-0.9122 I0.0072 J0.0173
G1 X2.2487 Y-0.6985
G2 X2.26 Y-0.7003 I0.0029 J-0.0185
G2 X2.2802 Y-0.711 I-0.26 J-0.5157
G2 X2.2653 Y-0.6895 I0.5698 J0.411
G1 X2.2375
G2 X2.26 Y-0.7003 I-0.2375 J-0.5265
G1 X2.2605 Y-0.7005
G1 X2.2609 Y-0.7006 Z-0.4999
G1 X2.2614 Y-0.7007 Z-0.4998
G1 X2.2618 Y-0.7008 Z-0.4997
G1 X2.2623 Z-0.4995
G1 X2.2627 Z-0.4993
G1 X2.2631 Z-0.499
G1 X2.2635 Y-0.7007 Z-0.4987
G1 X2.2639 Y-0.7006 Z-0.4984
G1 X2.2642 Y-0.7005 Z-0.498
G1 X2.2644 Y-0.7004 Z-0.4976
G1 X2.2647 Y-0.7003 Z-0.4972
G1 X2.2649 Y-0.7002 Z-0.4968
G1 X2.265 Y-0.7001 Z-0.4963
G1 X2.2652 Y-0.7 Z-0.4959
G1 X2.2653 Z-0.4954
G1 Y-0.6999 Z-0.4949
G1 Z-0.4944
G1 Z0.0394
G1 X2.2775 Y-0.7086
G1 Z-0.5
G1 X2.5212 Y-0.9205
G1 X2.5221 Y-0.9213
G1 X2.8112 Y-1.2105
G1 X3.1738
G1 X3.3105
G1 Y-0.8306
G2 X2.5221 Y-0.9213 I-0.4605 J0.5306
G2 X2.4343 Y-0.735 I0.08 J0.1516
G3 X2.406 Y-0.531 I-0.3008 J0.0623
G2 X2.3878 Y-0.4921 I0.444 J0.231
G1 X2.387 Y-0.4906
G1 X2.3858 Y-0.4893
G1 X2.3843 Y-0.4883
G1 X2.3827 Y-0.4877
G1 X2.3809 Y-0.4875
G1 X1.6191
G1 X1.6173 Y-0.4877
G1 X1.6157 Y-0.4883
G1 X1.6142 Y-0.4893
G1 X1.613 Y-0.4906
G1 X1.6122 Y-0.4921
G2 X0.6878 I-0.4622 J0.1921
G1 X0.687 Y-0.4906
G1 X0.6858 Y-0.4893
G1 X0.6843 Y-0.4883
G1 X0.6827 Y-0.4877
G1 X0.6809 Y-0.4875
G1 X0.495
G3 X0.4875 Y-0.495 I0. J-0.0075
G1 Y-1.405
G3 X0.495 Y-1.4125 I0.0075 J0.
G1 X1.2694
G1 X1.2713 Y-1.4122
G1 X1.2731 Y-1.4115
G1 X1.2747 Y-1.4103
G1 X1.7345 Y-0.9505
G2 X2.2655 I0.2655 J-0.2655
G1 X2.7253 Y-1.4103
G1 X2.7269 Y-1.4115
G1 X2.7287 Y-1.4122
G1 X2.7306 Y-1.4125
G1 X3.505
G3 X3.5125 Y-1.405 I0. J0.0075
G1 Y-0.495
G3 X3.505 Y-0.4875 I-0.0075 J0.
G1 X3.3191
G1 X3.3173 Y-0.4877
G1 X3.3157 Y-0.4883
G1 X3.3142 Y-0.4893
G1 X3.313 Y-0.4906
G1 X3.3122 Y-0.4921
G2 X2.406 Y-0.531 I-0.4622 J0.1921
G1 X2.4043 Y-0.5282 Z-0.4999
G1 X2.4023 Y-0.5256 Z-0.4994
G1 X2.4002 Y-0.5232 Z-0.4987
G1 X2.398 Y-0.5211 Z-0.4977
G1 X2.3956 Y-0.5192 Z-0.4965
G1 X2.3932 Y-0.5176 Z-0.495
G1 X2.3908 Y-0.5162 Z-0.4932
G1 X2.3884 Y-0.5151 Z-0.4912
G1 X2.3862 Y-0.5142 Z-0.489
G1 X2.3841 Y-0.5135 Z-0.4866
G1 X2.3822 Y-0.513 Z-0.484
G1 X2.3804 Y-0.5127 Z-0.4813
G1 X2.379 Y-0.5125 Z-0.4783
G1 X2.3777 Y-0.5123 Z-0.4753
G1 X2.3767 Y-0.5122 Z-0.4722
G1 X2.376 Z-0.469
G1 X2.3756 Z-0.4658
G1 X2.3755 Z-0.4625
G0 Z0.4
G0 X2.169 Y-2.1262
G0 Z0.1375
G1 Z-0.4625 F9.167
G1 X2.1688 Y-2.126 Z-0.467 F38.197
G1 X2.1683 Y-2.1254 Z-0.4715
G1 X2.1673 Y-2.1245 Z-0.4758
G1 X2.166 Y-2.1232 Z-0.4799
G1 X2.1643 Y-2.1215 Z-0.4838
G1 X2.1624 Y-2.1195 Z-0.4874
G1 X2.1601 Y-2.1173 Z-0.4906
G1 X2.1576 Y-2.1148 Z-0.4934
G1 X2.1548 Y-2.112 Z-0.4957
G1 X2.1519 Y-2.1091 Z-0.4976
G1 X2.1489 Y-2.106 Z-0.4989
G1 X2.1457 Y-2.1029 Z-0.4997
G1 X2.1425 Y-2.0997 Z-0.5
G1 X2.1299 Y-2.0871
G1 X2. Y-1.9572
G1 X1.8701 Y-2.0871
G3 X1.8832 Y-2.1191 I0.0133 J-0.0133
G1 X2.5879 Y-2.1246
G3 X2.5889 Y-2.0871 I0.0001 J0.0187
G2 X2.3359 Y-1.9755 I0.0175 J0.3821
G1 X2.0053 Y-1.6449
G3 X1.9947 I-0.0053 J-0.0053
G1 X1.6641 Y-1.9755
G2 X1.4112 Y-2.0871 I-0.2705 J0.2705
G1 X1.4082 Y-2.0872
G1 X1.4037 Y-2.0874 Z-0.4997
G1 X1.3993 Y-2.0876 Z-0.4989
G1 X1.3949 Y-2.0878 Z-0.4976
G1 X1.3908 Y-2.088 Z-0.4957
G1 X1.3869 Y-2.0882 Z-0.4934
G1 X1.3834 Y-2.0884 Z-0.4906
G1 X1.3802 Y-2.0885 Z-0.4874
G1 X1.3774 Y-2.0886 Z-0.4838
G1 X1.3751 Y-2.0888 Z-0.4799
G1 X1.3732 Z-0.4758
G1 X1.3719 Y-2.0889 Z-0.4715
G1 X1.371 Z-0.467
G1 X1.3708 Y-2.089 Z-0.4625
G0 Z0.4
M5 M9
G30

N50 (2D Chamfer2)
M1
T13 G43 H13 M6
S464 M3 M8
G17 G90 G94
G0 X2.479 Y-0.5069
G0 Z0.4
G0 Z0.1
G1 Z0.08 F1.528
G1 Z-0.035
G1 X2.4793 Y-0.507 Z-0.0389 F3.056
G1 X2.4802 Y-0.5071 Z-0.0427
G1 X2.4816 Y-0.5074 Z-0.0463
G1 X2.4836 Y-0.5078 Z-0.0497
G1 X2.4861 Y-0.5083 Z-0.0527
G1 X2.4891 Y-0.5089 Z-0.0552
G1 X2.4924 Y-0.5095 Z-0.0573
G1 X2.4959 Y-0.5102 Z-0.0588
G1 X2.4997 Y-0.511 Z-0.0597
G1 X2.5035 Y-0.5117 Z-0.06
G1 G41.2 X2.5526 Y-0.5213 D13
G3 X2.5488 Y-0.5026 I-0.0245 J0.0048
G2 X2.5148 Y-0.4393 I0.3012 J0.2026
G3 X2.3809 Y-0.35 I-0.1339 J-0.0557
G1 X1.6191
G3 X1.4852 Y-0.4393 I0. J-0.145
G2 X0.8148 I-0.3352 J0.1393
G3 X0.6809 Y-0.35 I-0.1339 J-0.0557
G1 X0.495
G3 X0.35 Y-0.495 I0. J-0.145
G1 Y-1.405
G3 X0.495 Y-1.55 I0.145 J0.
G1 X1.2694
G3 X1.3719 Y-1.5075 I0. J0.145
G1 X1.8317 Y-1.0477
G2 X2.1683 I0.1683 J-0.1683
G1 X2.6281 Y-1.5075
G3 X2.7306 Y-1.55 I0.1025 J0.1025
G1 X3.505
G3 X3.65 Y-1.405 I0. J0.145
G1 Y-0.495
G3 X3.505 Y-0.35 I-0.145 J0.
G1 X3.3191
G3 X3.1852 Y-0.4393 I0. J-0.145
G2 X2.5488 Y-0.5026 I-0.3352 J0.1393
G3 X2.5328 Y-0.492 I-0.0207 J-0.014
G1 G40 X2.5232 Y-0.541
G1 X2.5225 Y-0.5449 Z-0.0597
G1 X2.5217 Y-0.5486 Z-0.0588
G1 X2.521 Y-0.5522 Z-0.0573
G1 X2.5204 Y-0.5555 Z-0.0552
G1 X2.5198 Y-0.5584 Z-0.0527
G1 X2.5193 Y-0.5609 Z-0.0497
G1 X2.5189 Y-0.5629 Z-0.0463
G1 X2.5186 Y-0.5644 Z-0.0427
G1 X2.5185 Y-0.5653 Z-0.0389
G1 X2.5184 Y-0.5656 Z-0.035
G0 Z0.4

N60 (2D Chamfer2 (2))
S464 M3 M8
G0 X2.571 Y-2.0104
G0 Z0.4
G0 Z0.1
G1 Z0.08 F1.528
G1 Z-0.035
G1 X2.5712 Y-2.0101 Z-0.0389 F3.056
G1 X2.5719 Y-2.0095 Z-0.0427
G1 X2.5729 Y-2.0084 Z-0.0463
G1 X2.5744 Y-2.007 Z-0.0497
G1 X2.5762 Y-2.0052 Z-0.0527
G1 X2.5783 Y-2.0031 Z-0.0552
G1 X2.5807 Y-2.0007 Z-0.0573
G1 X2.5832 Y-1.9981 Z-0.0588
G1 X2.5859 Y-1.9954 Z-0.0597
G1 X2.5887 Y-1.9927 Z-0.06
G1 G41.2 X2.6241 Y-1.9573 D13
G3 X2.6064 Y-1.95 I-0.0177 J-0.0177
G1 X1.3936
G3 X1.3759 Y-1.9573 I0. J-0.025
G1 G40 X1.4113 Y-1.9927
G1 X1.4141 Y-1.9954 Z-0.0597
G1 X1.4168 Y-1.9981 Z-0.0588
G1 X1.4193 Y-2.0007 Z-0.0573
G1 X1.4217 Y-2.0031 Z-0.0552
G1 X1.4238 Y-2.0052 Z-0.0527
G1 X1.4256 Y-2.007 Z-0.0497
G1 X1.4271 Y-2.0084 Z-0.0463
G1 X1.4281 Y-2.0095 Z-0.0427
G1 X1.4288 Y-2.0101 Z-0.0389
G1 X1.429 Y-2.0104 Z-0.035
G0 Z0.4
M5 M9
G30

N70 (Drill1)
M1
T8 G43 H8 M6
S351 M3 M8
G17 G90 G94
G0 X0.15 Y-1.75
G0 Z0.4
G0 Z0.2
G98 G81 X0.15 Y-1.75 Z-0.105 R0.1 F13.123
Y-0.15
X1.15 Y-0.3
X2. Y-1.216
X2.85 Y-0.3
X3.85 Y-1.75
Y-0.15
G80
G0 Z0.4
M5 M9
G30

N80 (Drill2)
M1
T15 G43 H15 M6
S401 M3 M8
G17 G90 G94
G0 X0.15 Y-1.75
G0 Z0.4
G0 Z0.2
G98 G83 X0.15 Y-1.75 Z-0.58 R0.1 Q0.05 F3.056
Y-0.15
X1.15 Y-0.3
X2. Y-1.216
X2.85 Y-0.3
X3.85 Y-1.75
Y-0.15
G80
G0 Z0.4

N90 (Drill3)
S401 M3 M8
G0 X0.15 Y-1.75
G0 Z0.4
G0 Z0.2
G98 G84 X0.15 Y-1.75 Z-0.48 R0.1 P0. F0.
Y-0.15
X1.15 Y-0.3
X2. Y-1.216
X2.85 Y-0.3
X3.85 Y-1.75
Y-0.15
G80
G0 Z0.4
M5 M9

G30
M30
%
